; generated by PrusaSlicer 2.8.0+win64 on 2024-08-21 at 09:29:32 UTC


;
;
; 

; external perimeters extrusion width = 0.65mm
; perimeters extrusion width = 0.65mm
; infill extrusion width = 0.65mm
; solid infill extrusion width = 0.65mm
; top infill extrusion width = 0.60mm
; first layer extrusion width = 0.65mm

M73 P0 R29
M73 Q0 S29
M201 X1000 Y1000 Z200 E5000 ; sets maximum accelerations, mm/sec^2
M203 X200 Y200 Z12 E120 ; sets maximum feedrates, mm / sec
M204 S1250 T1250 ; sets acceleration (S) and retract acceleration (R), mm/sec^2
M205 X8.00 Y8.00 Z0.40 E4.50 ; sets the jerk limits, mm/sec
M205 S0 T0 ; sets the minimum extruding and travel feed rate, mm/sec

; printing object Case_top id:0 copy 0
; stop printing object Case_top id:0 copy 0

;TYPE:Custom
M862.3 P "MK3S" ; printer model check
M862.1 P0.6 ; nozzle diameter check
M115 U3.14.0 ; tell printer latest fw version
G90 ; use absolute coordinates
M83 ; extruder relative mode
M104 S215 ; set extruder temp
M140 S60 ; set bed temp
M190 S60 ; wait for bed temp
M109 S215 ; wait for extruder temp
G28 W ; home all without mesh bed level
G80 X88.3761 Y69.9043 W74.1142 H74.9142 ; mesh bed levelling

G1 Z0.2 F720
G1 Y-3 F1000 ; go outside print area
G92 E0
G1 X60 E9 F1000 ; intro line
G1 X100 E12.5 F1000 ; intro line

G92 E0
M221 S95
G21 ; set units to millimeters
G90 ; use absolute coordinates
M83 ; use relative distances for extrusion

M900 K0.04 ; Filament gcode LA 1.5
M900 K18 ; Filament gcode LA 1.0




M107
;LAYER_CHANGE
;Z:0.2
;HEIGHT:0.2
G1 E-.8 F2100
G1 Z.6 F720
G1 X90.884 Y73.561 F10800
G1 Z.2 F720
G1 E.8 F1500
M204 S800
;TYPE:Skirt/Brim
;WIDTH:0.65
G1 F1200
G1 X92.202 Y72.273 E.09302
G1 X93.747 Y71.266 E.09309
G1 X95.463 Y70.58 E.09329
G1 X96.368 Y70.365 E.04695
G1 X97.399 Y70.232 E.05247
G1 X152.902 Y70.208 E2.80173
G1 X154.725 Y70.41 E.09259
G1 X156.252 Y70.87 E.0805
G1 X157.89 Y71.715 E.09304
G1 X159.251 Y72.785 E.08739
G1 X160.458 Y74.178 E.09304
G1 X161.185 Y75.388 E.07126
G1 X161.814 Y76.987 E.08674
G1 X162.128 Y78.558 E.08087
G1 X162.187 Y79.547 E.05001
G1 X162.183 Y135.356 E2.81718
G1 X161.982 Y137.069 E.08706
G1 X161.559 Y138.489 E.07479
G1 X160.962 Y139.753 E.07056
G1 X159.973 Y141.174 E.08739
G1 X159.344 Y141.849 E.04657
G1 X158.563 Y142.529 E.05227
G1 X157.808 Y143.06 E.04659
G1 X156.601 Y143.705 E.06908
G1 X155.633 Y144.074 E.05229
G1 X154.74 Y144.31 E.04663
G1 X152.902 Y144.514 E.09335
G1 X97.839 Y144.511 E2.77952
G1 X96.126 Y144.31 E.08706
G1 X94.706 Y143.888 E.07478
G1 X93.442 Y143.29 E.07059
G1 X92.021 Y142.301 E.08739
G1 X91.345 Y141.672 E.04661
G1 X90.665 Y140.891 E.05227
G1 X90.134 Y140.136 E.04659
G1 X89.489 Y138.929 E.06908
G1 X89.121 Y137.961 E.05228
M73 P1 R29
M73 Q1 S29
G1 X88.885 Y137.069 E.04658
G1 X88.68 Y135.23 E.09341
G1 X88.683 Y79.367 E2.8199
G1 X88.882 Y77.669 E.0863
G1 X89.301 Y76.248 E.07478
G1 X89.897 Y74.983 E.07059
G1 X90.832 Y73.635 E.08281
M204 S1000
;WIPE_START
G1 F8640
G1 X90.884 Y73.561 E-.02088
G1 X92.202 Y72.273 E-.42552
G1 X93.485 Y71.437 E-.3536
;WIPE_END
G1 Z.6 F720
G1 X93.027 Y75.309 F10800
G1 Z.2 F720
G1 E.8 F1500
M204 S800
G1 F1200
G1 X93.151 Y75.146 E.01034
G1 X94.105 Y74.282 E.06497
G1 X95.205 Y73.613 E.06499
G1 X96.639 Y73.115 E.07663
G1 X97.969 Y72.958 E.0676
G1 X152.931 Y72.96 E2.77442
G1 X154.179 Y73.107 E.06343
G1 X155.409 Y73.499 E.06517
G1 X156.49 Y74.088 E.06214
G1 X157.45 Y74.871 E.06253
G1 X158.281 Y75.867 E.06548
G1 X158.875 Y76.938 E.06182
G1 X159.262 Y78.099 E.06178
G1 X159.427 Y79.35 E.0637
G1 X159.436 Y135.222 E2.82036
G1 X159.308 Y136.408 E.06022
G1 X158.968 Y137.561 E.06068
G1 X158.428 Y138.633 E.06059
G1 X157.732 Y139.558 E.05843
G1 X156.724 Y140.471 E.06865
G1 X155.53 Y141.17 E.06984
G1 X154.274 Y141.595 E.06693
G1 X152.903 Y141.764 E.06973
G1 X97.972 Y141.764 E2.77286
G1 X96.789 Y141.637 E.06006
G1 X95.63 Y141.295 E.061
G1 X94.594 Y140.775 E.05851
G1 X93.624 Y140.05 E.06113
G1 X92.713 Y139.038 E.06873
G1 X92.021 Y137.85 E.0694
G1 X91.601 Y136.605 E.06633
G1 X91.43 Y135.232 E.06984
G1 X91.43 Y79.51 E2.81278
G1 X91.538 Y78.423 E.05514
M73 P1 R28
G1 X91.81 Y77.397 E.05358
G1 X92.464 Y76.046 E.07577
G1 X92.972 Y75.381 E.04224
M204 S1000
G1 X92.972 Y75.381 F10800
G1 X93.453 Y75.75
M204 S800
G1 F1200
G1 X93.616 Y75.538 E.0135
G1 X94.447 Y74.784 E.05664
G1 X95.459 Y74.165 E.05988
G1 X96.782 Y73.705 E.07071
G1 X97.986 Y73.565 E.06119
G1 X152.914 Y73.567 E2.7727
G1 X154.025 Y73.695 E.05645
M73 P2 R28
M73 Q2 S29
G1 X155.147 Y74.047 E.05936
G1 X156.13 Y74.577 E.05637
G1 X157.043 Y75.322 E.05948
G1 X157.795 Y76.231 E.05955
G1 X158.329 Y77.204 E.05603
G1 X158.676 Y78.26 E.05611
G1 X158.823 Y79.407 E.05837
G1 X158.829 Y135.207 E2.81672
G1 X158.717 Y136.266 E.05376
G1 X158.413 Y137.315 E.05513
G1 X157.925 Y138.29 E.05504
G1 X157.265 Y139.169 E.05549
G1 X156.343 Y139.997 E.06255
G1 X155.253 Y140.629 E.0636
G1 X154.112 Y141.009 E.06071
G1 X152.885 Y141.157 E.06239
G1 X97.989 Y141.157 E2.77109
G1 X96.884 Y141.036 E.05611
G1 X95.831 Y140.722 E.05547
G1 X94.894 Y140.247 E.05303
G1 X94.014 Y139.584 E.05562
G1 X93.187 Y138.657 E.06271
G1 X92.585 Y137.624 E.06035
G1 X92.199 Y136.498 E.06009
G1 X92.037 Y135.213 E.06538
G1 X92.037 Y79.524 E2.81112
G1 X92.132 Y78.553 E.04925
G1 X92.378 Y77.611 E.04915
G1 X92.984 Y76.36 E.07017
G1 X93.398 Y75.821 E.03431
M204 S1000
G1 X93.398 Y75.821 F10800
G1 X93.877 Y76.192
M204 S800
G1 F1200
G1 X94.078 Y75.931 E.01663
G1 X94.831 Y75.255 E.05108
G1 X95.712 Y74.717 E.05211
G1 X96.923 Y74.296 E.06472
G1 X98.003 Y74.172 E.05488
G1 X152.896 Y74.174 E2.77094
G1 X153.925 Y74.295 E.0523
G1 X154.934 Y74.617 E.05346
G1 X155.813 Y75.095 E.05051
G1 X156.633 Y75.771 E.05364
G1 X157.306 Y76.592 E.05359
G1 X157.781 Y77.468 E.0503
G1 X158.089 Y78.418 E.05041
G1 X158.218 Y79.463 E.05315
G1 X158.222 Y135.19 E2.81304
G1 X158.117 Y136.173 E.0499
M73 P3 R28
M73 Q3 S29
G1 X157.839 Y137.116 E.04963
G1 X157.397 Y137.991 E.04948
G1 X156.799 Y138.779 E.04993
G1 X156.009 Y139.49 E.05365
G1 X155.028 Y140.064 E.05737
G1 X154.006 Y140.41 E.05447
G1 X152.867 Y140.55 E.05793
G1 X98.005 Y140.55 E2.76937
G1 X97.028 Y140.446 E.0496
G1 X96.08 Y140.167 E.04988
G1 X95.193 Y139.718 E.05018
G1 X94.407 Y139.119 E.04988
G1 X93.663 Y138.278 E.05668
G1 X93.126 Y137.348 E.05421
G1 X92.784 Y136.334 E.05402
G1 X92.644 Y135.195 E.05793
G1 X92.644 Y79.539 E2.80945
G1 X92.734 Y78.637 E.04576
M73 Q3 S28
G1 X92.947 Y77.825 E.04238
G1 X93.503 Y76.676 E.06443
G1 X93.822 Y76.263 E.02634
M204 S1000
G1 X93.822 Y76.263 F10800
G1 X94.3 Y76.635
M204 S800
G1 F1200
G1 X94.54 Y76.327 E.01971
G1 X95.213 Y75.727 E.04551
G1 X95.966 Y75.269 E.04449
G1 X97.065 Y74.887 E.05873
G1 X98.02 Y74.779 E.04851
G1 X152.879 Y74.781 E2.76922
G1 X153.772 Y74.883 E.04537
G1 X154.673 Y75.165 E.04766
G1 X155.453 Y75.585 E.04472
G1 X156.186 Y76.182 E.04772
G1 X156.789 Y76.911 E.04776
G1 X157.213 Y77.683 E.04446
G1 X157.502 Y78.576 E.04738
G1 X157.613 Y79.516 E.04778
G1 X157.615 Y135.174 E2.80955
G1 X157.516 Y136.078 E.04591
G1 X157.266 Y136.913 E.044
G1 X156.869 Y137.689 E.044
G1 X156.335 Y138.386 E.04432
G1 X155.629 Y139.015 E.04773
G1 X154.752 Y139.523 E.05116
G1 X153.845 Y139.824 E.04824
G1 X152.849 Y139.943 E.05063
G1 X98.022 Y139.943 E2.76761
G1 X97.122 Y139.846 E.04569
G1 X96.282 Y139.594 E.04427
G1 X95.496 Y139.191 E.04459
G1 X94.801 Y138.657 E.04424
G1 X94.141 Y137.903 E.05058
G1 X93.669 Y137.075 E.04811
G1 X93.37 Y136.173 E.04797
G1 X93.251 Y135.177 E.05063
G1 X93.251 Y79.554 E2.80779
G1 X93.327 Y78.765 E.04001
M73 P4 R28
M73 Q4 S28
G1 X93.516 Y78.037 E.03797
G1 X94.022 Y76.993 E.05856
G1 X94.245 Y76.706 E.01835
M204 S1000
G1 X94.245 Y76.706 F10800
G1 X94.721 Y77.079
M204 S800
G1 F1200
G1 X94.999 Y76.725 E.02272
G1 X95.594 Y76.201 E.04002
G1 X96.219 Y75.821 E.03692
G1 X97.204 Y75.479 E.05263
G1 X98.036 Y75.387 E.04225
G1 X152.861 Y75.388 E2.7675
G1 X153.671 Y75.482 E.04116
G1 X154.459 Y75.734 E.04176
G1 X155.136 Y76.103 E.03892
G1 X155.775 Y76.63 E.04181
G1 X156.299 Y77.271 E.04179
G1 X156.665 Y77.945 E.03872
G1 X156.914 Y78.73 E.04157
G1 X157.008 Y79.566 E.04247
G1 X157.008 Y135.157 E2.80617
G1 X156.916 Y135.982 E.0419
G1 X156.694 Y136.708 E.03832
G1 X156.344 Y137.384 E.03843
G1 X155.874 Y137.99 E.03871
G1 X155.253 Y138.538 E.04181
G1 X154.48 Y138.979 E.04492
G1 X153.687 Y139.237 E.0421
G1 X152.832 Y139.336 E.04345
G1 X98.037 Y139.336 E2.76599
G1 X97.265 Y139.255 E.03918
G1 X96.533 Y139.04 E.03851
G1 X95.799 Y138.664 E.04163
G1 X95.199 Y138.197 E.03838
G1 X94.621 Y137.53 E.04455
G1 X94.214 Y136.806 E.04193
G1 X93.957 Y136.016 E.04194
G1 X93.858 Y135.16 E.0435
G1 X93.858 Y79.567 E2.80627
G1 X93.922 Y78.891 E.03428
G1 X94.085 Y78.249 E.03344
G1 X94.539 Y77.311 E.0526
G1 X94.665 Y77.15 E.01032
M204 S1000
G1 X94.665 Y77.15 F10800
G1 X95.139 Y77.525
M204 S800
G1 F1200
G1 X95.457 Y77.125 E.02579
G1 X95.972 Y76.677 E.03446
G1 X96.473 Y76.373 E.02958
G1 X97.341 Y76.07 E.04641
G1 X98.052 Y75.994 E.03609
G1 X152.845 Y75.995 E2.76589
G1 X153.52 Y76.071 E.03429
G1 X154.195 Y76.282 E.0357
G1 X154.818 Y76.621 E.0358
G1 X155.362 Y77.076 E.0358
G1 X155.808 Y77.628 E.03582
G1 X156.115 Y78.204 E.03295
G1 X156.325 Y78.88 E.03573
G1 X156.401 Y79.581 E.03559
G1 X156.401 Y135.141 E2.80461
G1 X156.326 Y135.836 E.03529
M73 P5 R28
M73 Q5 S28
G1 X156.14 Y136.458 E.03277
G1 X155.846 Y137.036 E.03273
G1 X155.413 Y137.594 E.03565
G1 X154.879 Y138.059 E.03574
G1 X154.211 Y138.434 E.03867
G1 X153.534 Y138.649 E.03586
G1 X152.816 Y138.729 E.03647
G1 X98.053 Y138.729 E2.76437
G1 X97.359 Y138.655 E.03523
M73 P5 R27
G1 X96.736 Y138.468 E.03283
G1 X96.106 Y138.14 E.03585
G1 X95.599 Y137.74 E.0326
G1 X95.103 Y137.16 E.03852
G1 X94.761 Y136.541 E.0357
G1 X94.545 Y135.862 E.03597
G1 X94.465 Y135.144 E.03647
G1 X94.465 Y79.581 E2.80476
G1 X94.655 Y78.46 E.05739
G1 X95.054 Y77.632 E.0464
G1 X95.084 Y77.596 E.00237
M204 S1000
G1 X95.084 Y77.596 F10800
G1 X95.568 Y77.957
M204 S800
G1 F1200
G1 X95.912 Y77.528 E.02776
G1 X96.726 Y76.925 E.05114
G1 X97.475 Y76.663 E.04006
G1 X98.068 Y76.601 E.0301
G1 X152.829 Y76.602 E2.76427
G1 X153.372 Y76.66 E.02757
G1 X153.937 Y76.832 E.02981
G1 X154.457 Y77.11 E.02976
G1 X154.913 Y77.485 E.0298
G1 X155.287 Y77.941 E.02977
G1 X155.564 Y78.462 E.02979
G1 X155.735 Y79.027 E.0298
G1 X155.794 Y79.596 E.02888
G1 X155.794 Y135.126 E2.80309
G1 X155.736 Y135.69 E.02862
G1 X155.567 Y136.255 E.02977
G1 X155.321 Y136.729 E.02696
G1 X154.956 Y137.194 E.02984
G1 X154.508 Y137.578 E.02979
G1 X153.993 Y137.867 E.02981
G1 X153.433 Y138.05 E.02974
G1 X152.798 Y138.122 E.03226
G1 X98.068 Y138.122 E2.76271
G1 X97.505 Y138.065 E.02856
M73 P6 R27
G1 X96.94 Y137.895 E.02978
G1 X96.418 Y137.618 E.02983
G1 X96.002 Y137.285 E.0269
G1 X95.617 Y136.836 E.02986
G1 X95.328 Y136.322 E.02977
G1 X95.145 Y135.761 E.02979
G1 X95.073 Y135.127 E.03221
G1 X95.073 Y79.595 E2.80319
G1 X95.224 Y78.672 E.04721
M73 Q6 S28
G1 X95.529 Y78.038 E.03551
M204 S1000
G1 X95.529 Y78.038 F10800
G1 X96.073 Y78.297
M204 S800
G1 F1200
G1 X96.08 Y78.284 E.00075
G1 X96.364 Y77.934 E.02275
G1 X96.979 Y77.478 E.03865
G1 X97.604 Y77.256 E.03348
G1 X98.082 Y77.208 E.02425
G1 X152.812 Y77.209 E2.76271
G1 X153.724 Y77.401 E.04705
G1 X154.498 Y77.93 E.04732
G1 X155.011 Y78.714 E.04729
G1 X155.187 Y79.61 E.04609
G1 X155.187 Y135.113 E2.80173
G1 X155.014 Y136.004 E.04582
G1 X154.502 Y136.789 E.04731
G1 X153.729 Y137.319 E.04731
G1 X152.783 Y137.515 E.04877
G1 X98.081 Y137.515 E2.7613
G1 X97.191 Y137.342 E.04577
M73 Q6 S27
G1 X96.405 Y136.831 E.04732
G1 X95.875 Y136.058 E.04731
G1 X95.68 Y135.111 E.04881
G1 X95.68 Y79.61 E2.80163
G1 X95.794 Y78.883 E.03715
G1 X96.035 Y78.379 E.0282
M204 S1000
;WIPE_START
G1 F8640
G1 X96.073 Y78.297 E-.02087
G1 X96.08 Y78.284 E-.00341
G1 X96.364 Y77.934 E-.10407
G1 X96.979 Y77.478 E-.17678
G1 X97.604 Y77.256 E-.15315
G1 X98.082 Y77.208 E-.11093
G1 X99.082 Y77.208 E-.23079
;WIPE_END
G1 Z.6 F720
; printing object Case_top id:0 copy 0
G1 X123.765 Y101.751 F10800
G1 Z.2 F720
G1 E.8 F1500
M204 S800
;TYPE:External perimeter
;WIDTH:0.69302
G1 F1200
G1 X123.76 Y101.25 E.02708
;WIDTH:0.688524
G1 X123.763 Y101.19 E.00322
M204 S1000
;WIPE_START
G1 F8640
G1 X123.76 Y101.25 E-.01387
G1 X123.765 Y101.751 E-.11569
;WIPE_END
G1 E-.67044 F2100
G1 Z.6 F720
G1 X128.282 Y101.707 F10800
G1 Z.2 F720
G1 E.8 F1500
M204 S800
;WIDTH:0.55292
G1 F1200
G1 X128.278 Y101.147 E.02375
M204 S1000
;WIPE_START
G1 F8640
G1 X128.282 Y101.707 E-.12931
;WIPE_END
G1 E-.67069 F2100
G1 Z.6 F720
G1 X130.594 Y101.702 F10800
G1 Z.2 F720
G1 E.8 F1500
M204 S800
;WIDTH:0.618814
G1 F1200
G1 X130.59 Y99.62 E.0997
M204 S1000
;WIPE_START
G1 F8640
G1 X130.594 Y101.702 E-.48074
;WIPE_END
G1 E-.31926 F2100
G1 Z.6 F720
G1 X133.207 Y101.631 F10800
G1 Z.2 F720
G1 E.8 F1500
M204 S800
;WIDTH:0.901534
G1 F1200
G1 X133.244 Y101.634 E.00265
;WIDTH:0.851732
G1 X133.281 Y101.636 E.00249
;WIDTH:0.80193
G1 X133.318 Y101.638 E.00234
;WIDTH:0.752128
G1 X133.355 Y101.641 E.00219
;WIDTH:0.702326
G1 X133.392 Y101.643 E.00203
;WIDTH:0.652524
G1 X133.43 Y101.646 E.00193
;WIDTH:0.602722
G1 X133.467 Y101.648 E.00172
;WIDTH:0.55292
G1 X133.697 Y101.736 E.01044
;WIDTH:0.565326
G1 X134.065 Y101.999 E.01965
;WIDTH:0.596092
G1 X134.395 Y102.134 E.0164
M204 S1000
;WIPE_START
G1 F8640
G1 X134.065 Y101.999 E-.08233
G1 X133.697 Y101.736 E-.10444
G1 X133.467 Y101.648 E-.05686
G1 X133.43 Y101.646 E-.00856
G1 X133.392 Y101.643 E-.0088
G1 X133.355 Y101.641 E-.00856
G1 X133.318 Y101.638 E-.00857
G1 X133.281 Y101.636 E-.00856
G1 X133.244 Y101.634 E-.00856
G1 X133.207 Y101.631 E-.00857
;WIPE_END
G1 E-.49619 F2100
G1 Z.6 F720
G1 X132.98 Y102.953 F10800
G1 Z.2 F720
G1 E.8 F1500
M204 S800
;WIDTH:0.55292
G1 F1200
G1 X132.984 Y102.847 E.0045
;WIDTH:0.596068
G1 X133.013 Y102.687 E.00748
;WIDTH:0.639215
G1 X133.041 Y102.527 E.00805
;WIDTH:0.682363
G1 X133.07 Y102.368 E.00859
;WIDTH:0.72551
G1 X133.098 Y102.208 E.00922
;WIDTH:0.768657
G1 X133.127 Y102.048 E.00981
;WIDTH:0.811805
G1 X133.155 Y101.888 E.01038
;WIDTH:0.854952
G1 X133.184 Y101.728 E.01098
;WIDTH:0.901534
G1 X133.207 Y101.631 E.00712
G1 X133.185 Y101.552 E.00585
;WIDTH:0.857889
G1 X133.163 Y101.472 E.00562
;WIDTH:0.814243
G1 X133.141 Y101.393 E.00526
;WIDTH:0.770597
G1 X133.12 Y101.313 E.005
;WIDTH:0.726952
G1 X133.098 Y101.233 E.00472
;WIDTH:0.683306
G1 X133.076 Y101.154 E.00437
;WIDTH:0.63966
G1 X133.058 Y100.914 E.01194
;WIDTH:0.603369
G1 X133.04 Y100.673 E.01126
M204 S1000
;WIPE_START
G1 F8640
G1 X133.058 Y100.914 E-.0558
G1 X133.076 Y101.154 E-.05557
G1 X133.098 Y101.233 E-.01894
G1 X133.12 Y101.313 E-.01916
G1 X133.141 Y101.393 E-.0191
G1 X133.163 Y101.472 E-.01894
G1 X133.185 Y101.552 E-.01916
G1 X133.207 Y101.631 E-.01894
G1 X133.184 Y101.728 E-.02302
G1 X133.155 Y101.888 E-.03755
G1 X133.127 Y102.048 E-.03751
G1 X133.098 Y102.208 E-.03755
G1 X133.07 Y102.368 E-.03751
G1 X133.041 Y102.527 E-.03732
G1 X133.013 Y102.687 E-.03751
G1 X132.984 Y102.847 E-.03755
G1 X132.98 Y102.953 E-.02449
;WIPE_END
G1 E-.26438 F2100
G1 Z.6 F720
G1 X135.488 Y100.65 F10800
G1 Z.2 F720
M73 P7 R27
G1 E.8 F1500
M204 S800
;WIDTH:0.55292
G1 F1200
G1 X136.13 Y100.931 E.02972
;WIDTH:0.587524
G1 X136.249 Y100.937 E.0054
;WIDTH:0.622128
G1 X136.369 Y100.944 E.00579
;WIDTH:0.656732
G1 X136.488 Y100.95 E.00608
;WIDTH:0.705662
G1 X136.519 Y100.943 E.00175
;WIDTH:0.754591
G1 X136.55 Y100.936 E.00188
;WIDTH:0.80352
G1 X136.581 Y100.928 E.00202
;WIDTH:0.85245
G1 X136.611 Y100.921 E.00207
;WIDTH:0.901379
G1 X136.642 Y100.914 E.00227
;WIDTH:0.950308
G1 X136.673 Y100.906 E.00242
G1 X136.775 Y100.644 E.02121
;WIDTH:0.907166
G1 X136.877 Y100.382 E.0202
;WIDTH:0.901678
G1 X137.054 Y100.055 E.02655
M204 S1000
;WIPE_START
G1 F8640
G1 X136.877 Y100.382 E-.08586
G1 X136.775 Y100.644 E-.06492
G1 X136.673 Y100.906 E-.06492
G1 X136.642 Y100.914 E-.00739
G1 X136.611 Y100.921 E-.00734
G1 X136.581 Y100.928 E-.00711
G1 X136.55 Y100.936 E-.00739
G1 X136.519 Y100.943 E-.00734
G1 X136.488 Y100.95 E-.00734
G1 X136.369 Y100.944 E-.02751
G1 X136.249 Y100.937 E-.02776
G1 X136.13 Y100.931 E-.02751
G1 X135.488 Y100.65 E-.16182
;WIPE_END
G1 E-.29579 F2100
G1 Z.6 F720
G1 X136.913 Y101.797 F10800
G1 Z.2 F720
G1 E.8 F1500
M204 S800
;WIDTH:0.587671
G1 F1200
