; generated by PrusaSlicer 2.8.0+win64 on 2024-08-21 at 09:27:18 UTC


;
;
; 

; external perimeters extrusion width = 0.65mm
; perimeters extrusion width = 0.65mm
; infill extrusion width = 0.65mm
; solid infill extrusion width = 0.65mm
; top infill extrusion width = 0.60mm
; first layer extrusion width = 0.65mm

M73 P0 R37
M73 Q0 S37
M201 X1000 Y1000 Z200 E5000 ; sets maximum accelerations, mm/sec^2
M203 X200 Y200 Z12 E120 ; sets maximum feedrates, mm / sec
M204 S1250 T1250 ; sets acceleration (S) and retract acceleration (R), mm/sec^2
M205 X8.00 Y8.00 Z0.40 E4.50 ; sets the jerk limits, mm/sec
M205 S0 T0 ; sets the minimum extruding and travel feed rate, mm/sec

; printing object Case_bottom id:0 copy 0
; stop printing object Case_bottom id:0 copy 0

;TYPE:Custom
M862.3 P "MK3S" ; printer model check
M862.1 P0.6 ; nozzle diameter check
M115 U3.14.0 ; tell printer latest fw version
G90 ; use absolute coordinates
M83 ; extruder relative mode
M104 S215 ; set extruder temp
M140 S60 ; set bed temp
M190 S60 ; wait for bed temp
M109 S215 ; wait for extruder temp
G28 W ; home all without mesh bed level
G80 X88.1429 Y67.7429 W73.7142 H74.5142 ; mesh bed levelling

G1 Z0.2 F720
G1 Y-3 F1000 ; go outside print area
G92 E0
G1 X60 E9 F1000 ; intro line
G1 X100 E12.5 F1000 ; intro line

G92 E0
M221 S95
G21 ; set units to millimeters
G90 ; use absolute coordinates
M83 ; use relative distances for extrusion

M900 K0.04 ; Filament gcode LA 1.5
M900 K18 ; Filament gcode LA 1.0




M107
;LAYER_CHANGE
;Z:0.2
;HEIGHT:0.2
G1 E-.8 F2100
G1 Z.6 F720
G1 X90.132 Y71.94 F10800
G1 Z.2 F720
G1 E.8 F1500
M204 S800
;TYPE:Skirt/Brim
;WIDTH:0.65
G1 F1200
G1 X90.976 Y70.913 E.0671
G1 X92.433 Y69.667 E.09677
G1 X93.201 Y69.192 E.04558
G1 X94.859 Y68.479 E.0911
G1 X96.623 Y68.103 E.09105
G1 X102.623 Y68.046 E.30289
G1 X153.015 Y68.07 E2.54373
G1 X154.023 Y68.199 E.0513
G1 X154.902 Y68.407 E.0456
G1 X156.578 Y69.074 E.09106
G1 X157.359 Y69.528 E.0456
G1 X158.285 Y70.215 E.0582
G1 X158.946 Y70.831 E.04561
G1 X159.613 Y71.597 E.05127
G1 X160.408 Y72.801 E.07283
G1 X161.085 Y74.351 E.08538
G1 X161.401 Y75.577 E.06391
G1 X161.55 Y77.011 E.07278
G1 X161.553 Y132.864 E2.8194
G1 X161.497 Y133.777 E.04617
M73 P0 R36
G1 X161.327 Y134.779 E.0513
G1 X160.941 Y136.051 E.0671
G1 X160.072 Y137.759 E.09674
G1 X159.544 Y138.492 E.0456
G1 X158.769 Y139.346 E.05821
G1 X158.003 Y140.013 E.05127
G1 X156.799 Y140.808 E.07283
G1 X155.249 Y141.485 E.08538
G1 X154.023 Y141.801 E.06391
G1 X152.589 Y141.95 E.07278
G1 X97.536 Y141.953 E2.77901
G1 X96.623 Y141.897 E.04617
G1 X94.751 Y141.485 E.09676
G1 X93.523 Y140.976 E.0671
G1 X92.641 Y140.472 E.05128
G1 X91.908 Y139.944 E.0456
G1 X91.054 Y139.169 E.05821
G1 X90.387 Y138.403 E.05127
G1 X89.592 Y137.199 E.07283
G1 X88.915 Y135.649 E.08538
G1 X88.599 Y134.423 E.06391
G1 X88.45 Y132.989 E.07278
G1 X88.446 Y77.192 E2.81657
G1 X88.599 Y75.577 E.08189
G1 X88.879 Y74.459 E.05818
G1 X89.195 Y73.612 E.04563
G1 X89.592 Y72.801 E.04558
G1 X90.085 Y72.017 E.04675
M204 S1000
;WIPE_START
G1 F8640
G1 X90.132 Y71.94 E-.02083
G1 X90.976 Y70.913 E-.30694
G1 X92.433 Y69.667 E-.44267
G1 X92.542 Y69.6 E-.02956
;WIPE_END
G1 Z.6 F720
G1 X92.333 Y73.655 F10800
G1 Z.2 F720
G1 E.8 F1500
M204 S800
G1 F1200
G1 X92.885 Y72.898 E.04729
G1 X93.825 Y72.055 E.06374
G1 X94.876 Y71.425 E.06185
G1 X96.057 Y70.997 E.06341
G1 X97.279 Y70.806 E.06243
G1 X152.638 Y70.807 E2.79446
G1 X153.834 Y70.971 E.06094
M73 P1 R36
M73 Q1 S37
G1 X154.969 Y71.353 E.06045
G1 X156.016 Y71.94 E.06059
G1 X156.93 Y72.705 E.06017
G1 X157.683 Y73.618 E.05974
G1 X158.284 Y74.716 E.06319
G1 X158.649 Y75.852 E.06023
G1 X158.795 Y77.001 E.05847
G1 X158.803 Y132.855 E2.81945
G1 X158.679 Y134.002 E.05824
G1 X158.35 Y135.124 E.05902
G1 X157.819 Y136.174 E.0594
G1 X157.142 Y137.072 E.05677
G1 X156.158 Y137.958 E.06684
G1 X155.002 Y138.632 E.06755
G1 X153.795 Y139.038 E.06428
G1 X152.465 Y139.203 E.06765
G1 X97.545 Y139.203 E2.7723
G1 X96.398 Y139.079 E.05824
G1 X95.276 Y138.75 E.05902
G1 X94.226 Y138.219 E.0594
G1 X93.328 Y137.542 E.05677
G1 X92.442 Y136.558 E.06684
G1 X91.768 Y135.402 E.06755
G1 X91.362 Y134.195 E.06428
G1 X91.197 Y132.865 E.06765
G1 X91.197 Y77.176 E2.81112
G1 X91.286 Y76.205 E.04922
G1 X91.578 Y75.065 E.0594
G1 X92.04 Y74.058 E.05593
G1 X92.28 Y73.728 E.0206
M204 S1000
G1 X92.28 Y73.728 F10800
G1 X92.769 Y74.084
M204 S800
G1 F1200
G1 X93.341 Y73.3 E.04899
G1 X94.165 Y72.559 E.05594
G1 X95.114 Y71.984 E.05601
G1 X96.183 Y71.592 E.05748
G1 X97.304 Y71.413 E.0573
G1 X152.618 Y71.414 E2.79219
G1 X153.669 Y71.556 E.05354
G1 X154.747 Y71.919 E.05742
G1 X155.691 Y72.454 E.05477
G1 X156.516 Y73.15 E.05449
G1 X157.194 Y73.979 E.05406
G1 X157.736 Y74.978 E.05737
G1 X158.061 Y76.007 E.05447
G1 X158.19 Y77.056 E.05335
G1 X158.196 Y132.839 E2.81586
G1 X158.079 Y133.908 E.05428
M73 Q1 S36
G1 X157.776 Y134.923 E.05347
G1 X157.291 Y135.872 E.0538
G1 X156.677 Y136.681 E.05127
G1 X155.777 Y137.485 E.06092
G1 X154.777 Y138.067 E.05841
G1 X153.688 Y138.44 E.05811
G1 X152.446 Y138.596 E.06319
G1 X97.561 Y138.596 E2.77053
G1 X96.492 Y138.479 E.05428
G1 X95.477 Y138.176 E.05347
G1 X94.528 Y137.691 E.0538
G1 X93.719 Y137.077 E.05127
G1 X92.915 Y136.177 E.06092
G1 X92.333 Y135.177 E.05841
G1 X91.96 Y134.088 E.05811
G1 X91.804 Y132.846 E.06319
G1 X91.804 Y77.189 E2.8095
G1 X91.88 Y76.33 E.04353
M73 P2 R36
M73 Q2 S36
G1 X92.143 Y75.29 E.05415
G1 X92.562 Y74.369 E.05108
G1 X92.716 Y74.157 E.01323
M204 S1000
G1 X92.716 Y74.157 F10800
G1 X93.205 Y74.513
M204 S800
G1 F1200
G1 X93.796 Y73.703 E.05061
G1 X94.547 Y73.032 E.05084
G1 X95.4 Y72.52 E.05022
G1 X96.361 Y72.173 E.05158
G1 X97.327 Y72.02 E.04937
G1 X152.598 Y72.021 E2.79002
G1 X153.506 Y72.142 E.04624
G1 X154.477 Y72.463 E.05162
G1 X155.322 Y72.937 E.04891
G1 X156.102 Y73.595 E.05151
G1 X156.703 Y74.337 E.0482
G1 X157.186 Y75.238 E.0516
G1 X157.473 Y76.16 E.04874
G1 X157.585 Y77.109 E.04824
G1 X157.589 Y132.823 E2.81238
G1 X157.489 Y133.765 E.04782
G1 X157.222 Y134.675 E.04787
G1 X156.791 Y135.528 E.04824
G1 X156.212 Y136.289 E.04827
G1 X155.399 Y137.009 E.05482
G1 X154.501 Y137.526 E.05231
G1 X153.524 Y137.855 E.05204
G1 X152.428 Y137.989 E.05574
G1 X97.577 Y137.989 E2.76882
G1 X96.635 Y137.889 E.04782
G1 X95.725 Y137.622 E.04787
G1 X94.872 Y137.191 E.04824
G1 X94.111 Y136.612 E.04827
G1 X93.391 Y135.799 E.05482
G1 X92.874 Y134.901 E.05231
G1 X92.545 Y133.924 E.05204
G1 X92.411 Y132.828 E.05574
G1 X92.411 Y77.202 E2.80794
G1 X92.475 Y76.451 E.03805
G1 X92.708 Y75.514 E.04874
G1 X93.085 Y74.679 E.04625
G1 X93.152 Y74.586 E.00579
M204 S1000
G1 X93.152 Y74.586 F10800
G1 X93.641 Y74.942
M204 S800
G1 F1200
G1 X94.25 Y74.106 E.05221
G1 X94.887 Y73.535 E.04318
G1 X95.638 Y73.079 E.04435
G1 X96.488 Y72.767 E.04571
G1 X97.352 Y72.627 E.04418
G1 X152.541 Y72.625 E2.78588
G1 X153.347 Y72.728 E.04102
G1 X154.207 Y73.008 E.04565
G1 X154.999 Y73.452 E.04583
G1 X155.685 Y74.037 E.04551
G1 X156.211 Y74.693 E.04244
G1 X156.636 Y75.496 E.04586
G1 X156.884 Y76.309 E.04291
G1 X156.98 Y77.159 E.04318
G1 X156.982 Y132.806 E2.809
G1 X156.888 Y133.671 E.04392
G1 X156.648 Y134.473 E.04226
G1 X156.264 Y135.225 E.04262
G1 X155.75 Y135.895 E.04263
G1 X155.023 Y136.531 E.04876
G1 X154.229 Y136.982 E.04609
G1 X153.364 Y137.268 E.04599
G1 X152.41 Y137.382 E.0485
G1 X97.594 Y137.382 E2.76705
G1 X96.729 Y137.288 E.04392
M73 P3 R36
M73 Q3 S36
G1 X95.927 Y137.048 E.04226
G1 X95.175 Y136.664 E.04262
G1 X94.505 Y136.15 E.04263
G1 X93.869 Y135.423 E.04876
G1 X93.418 Y134.629 E.04609
G1 X93.132 Y133.764 E.04599
G1 X93.018 Y132.81 E.0485
G1 X93.018 Y77.214 E2.80642
G1 X93.071 Y76.57 E.03262
M73 P3 R35
G1 X93.274 Y75.735 E.04338
G1 X93.594 Y75.018 E.03963
M204 S1000
G1 X93.594 Y75.018 F10800
G1 X94.131 Y75.295
M204 S800
G1 F1200
G1 X94.705 Y74.509 E.04913
G1 X95.23 Y74.037 E.03564
G1 X95.88 Y73.637 E.03853
G1 X96.618 Y73.361 E.03977
G1 X97.378 Y73.235 E.03889
G1 X152.487 Y73.23 E2.78184
G1 X153.191 Y73.316 E.0358
G1 X153.941 Y73.554 E.03972
G1 X154.632 Y73.936 E.03986
G1 X155.233 Y74.443 E.03969
G1 X155.691 Y75.007 E.03667
G1 X156.064 Y75.702 E.03982
G1 X156.295 Y76.458 E.0399
G1 X156.375 Y77.207 E.03802
G1 X156.375 Y132.791 E2.80582
G1 X156.298 Y133.528 E.03741
G1 X156.095 Y134.223 E.03655
G1 X155.737 Y134.923 E.03969
G1 X155.29 Y135.497 E.03672
G1 X154.651 Y136.051 E.04269
G1 X153.96 Y136.437 E.03995
G1 X153.207 Y136.681 E.03996
G1 X152.394 Y136.775 E.04131
G1 X97.609 Y136.775 E2.76549
G1 X96.872 Y136.698 E.03741
G1 X96.177 Y136.495 E.03655
G1 X95.477 Y136.137 E.03969
G1 X94.903 Y135.69 E.03672
G1 X94.349 Y135.051 E.04269
G1 X93.963 Y134.36 E.03995
G1 X93.719 Y133.607 E.03996
G1 X93.625 Y132.794 E.04131
G1 X93.625 Y77.225 E2.80506
G1 X93.841 Y75.953 E.06513
G1 X94.095 Y75.378 E.03173
M204 S1000
G1 X94.095 Y75.378 F10800
G1 X94.649 Y75.619
M204 S800
G1 F1200
G1 X94.657 Y75.6 E.00104
G1 X95.16 Y74.911 E.04306
G1 X95.575 Y74.537 E.0282
G1 X96.126 Y74.193 E.03279
G1 X96.752 Y73.954 E.03382
G1 X97.405 Y73.842 E.03344
G1 X152.437 Y73.835 E2.77795
G1 X153.041 Y73.904 E.03069
G1 X153.679 Y74.103 E.03374
G1 X154.268 Y74.423 E.03384
G1 X154.784 Y74.852 E.03387
G1 X155.173 Y75.325 E.03091
G1 X155.494 Y75.914 E.03386
G1 X155.695 Y76.554 E.03386
G1 X155.768 Y77.224 E.03402
G1 X155.768 Y132.774 E2.8041
G1 X155.697 Y133.434 E.03351
M73 P4 R35
M73 Q4 S36
G1 X155.522 Y134.02 E.03087
G1 X155.212 Y134.616 E.03391
G1 X154.833 Y135.097 E.03091
G1 X154.282 Y135.568 E.03659
G1 X153.696 Y135.89 E.03375
G1 X153.054 Y136.093 E.03399
G1 X152.378 Y136.168 E.03433
G1 X97.626 Y136.168 E2.76382
G1 X96.966 Y136.097 E.03351
G1 X96.38 Y135.922 E.03087
G1 X95.784 Y135.612 E.03391
G1 X95.303 Y135.233 E.03091
G1 X94.832 Y134.682 E.03659
G1 X94.51 Y134.096 E.03375
G1 X94.307 Y133.454 E.03399
G1 X94.232 Y132.778 E.03433
G1 X94.232 Y77.235 E2.80375
G1 X94.409 Y76.169 E.05455
G1 X94.613 Y75.702 E.02572
M204 S1000
G1 X94.613 Y75.702 F10800
G1 X95.168 Y75.94
M204 S800
G1 F1200
G1 X95.185 Y75.901 E.00215
G1 X95.615 Y75.314 E.03673
G1 X96.376 Y74.746 E.04793
G1 X96.89 Y74.546 E.02784
G1 X97.433 Y74.449 E.02784
G1 X152.39 Y74.441 E2.77417
G1 X152.895 Y74.494 E.02563
M73 Q4 S35
G1 X153.422 Y74.654 E.0278
G1 X153.908 Y74.913 E.0278
G1 X154.334 Y75.262 E.0278
G1 X154.684 Y75.687 E.02779
G1 X154.944 Y76.172 E.02778
G1 X155.105 Y76.701 E.02791
G1 X155.161 Y77.239 E.0273
G1 X155.161 Y132.76 E2.80264
G1 X155.107 Y133.289 E.02684
G1 X154.949 Y133.816 E.02777
G1 X154.378 Y134.694 E.05287
G1 X153.958 Y135.054 E.02792
G1 X153.477 Y135.323 E.02782
G1 X152.954 Y135.493 E.02776
G1 X152.36 Y135.561 E.03018
G1 X97.64 Y135.561 E2.7622
G1 X97.111 Y135.507 E.02684
G1 X96.584 Y135.349 E.02777
G1 X95.706 Y134.778 E.05287
G1 X95.346 Y134.358 E.02792
G1 X95.077 Y133.877 E.02782
G1 X94.907 Y133.354 E.02776
G1 X94.839 Y132.76 E.03018
G1 X94.839 Y77.245 E2.80233
G1 X94.979 Y76.38 E.04423
G1 X95.132 Y76.023 E.01961
M204 S1000
G1 X95.132 Y76.023 F10800
G1 X95.689 Y76.258
M204 S800
G1 F1200
G1 X95.714 Y76.198 E.00328
G1 X96.07 Y75.716 E.03025
G1 X96.633 Y75.297 E.03543
G1 X97.462 Y75.056 E.04358
G1 X152.348 Y75.047 E2.77058
G1 X153.171 Y75.207 E.04232
M73 P5 R35
G1 X153.89 Y75.677 E.04336
G1 X154.375 Y76.386 E.04336
G1 X154.554 Y77.255 E.04479
G1 X154.554 Y132.747 E2.80117
G1 X154.395 Y133.566 E.04211
M73 Q5 S35
G1 X153.924 Y134.29 E.0436
G1 X153.214 Y134.775 E.0434
G1 X152.345 Y134.954 E.04479
G1 X97.653 Y134.954 E2.76079
G1 X96.834 Y134.795 E.04211
G1 X96.11 Y134.324 E.0436
G1 X95.625 Y133.614 E.0434
G1 X95.446 Y132.745 E.04479
G1 X95.447 Y77.253 E2.80117
G1 X95.55 Y76.587 E.03402
G1 X95.654 Y76.341 E.01348
M204 S1000
;WIPE_START
G1 F8640
G1 X95.689 Y76.258 E-.0208
G1 X95.714 Y76.198 E-.01501
G1 X96.07 Y75.716 E-.13836
G1 X96.633 Y75.297 E-.16205
G1 X97.462 Y75.056 E-.19934
G1 X98.607 Y75.056 E-.26444
;WIPE_END
G1 Z.6 F720
; printing object Case_bottom id:0 copy 0
G1 X103.33 Y79.796 F10800
G1 Z.2 F720
G1 E.8 F1500
M204 S800
;TYPE:External perimeter
;WIDTH:0.649999
G1 F1200
G1 X103.339 Y79.843 E.00242
G1 X103.301 Y79.952 E.00583
G1 X101.932 Y82.323 E.1382
G1 X101.795 Y82.448 E.00936
G1 X101.669 Y82.475 E.0065
G1 X98.931 Y82.475 E.13821
G1 X98.753 Y82.418 E.00943
G1 X98.668 Y82.323 E.00643
;WIDTH:0.689306
G1 X98.195 Y81.543 E.04903
;WIDTH:0.728613
G1 X97.721 Y80.762 E.05209
;WIDTH:0.767919
G1 X97.248 Y79.981 E.05504
;WIDTH:0.81009
G1 X97.213 Y79.945 E.0032
;WIDTH:0.85226
G1 X97.177 Y79.909 E.00343
;WIDTH:0.89443
G1 X97.142 Y79.874 E.0035
G1 X97.139 Y79.8 E.00524
;WIDTH:0.888027
G1 X97.173 Y79.759 E.00374
;WIDTH:0.842709
G1 X97.207 Y79.717 E.00359
;WIDTH:0.797391
G1 X97.24 Y79.676 E.0033
;WIDTH:0.752073
G1 X97.274 Y79.634 E.00319
;WIDTH:0.706754
G1 X97.792 Y78.766 E.0558
;WIDTH:0.678377
G1 X98.309 Y77.898 E.05338
;WIDTH:0.649999
G1 X98.668 Y77.277 E.03621
G1 X98.931 Y77.125 E.01533
G1 X101.669 Y77.125 E.13821
G1 X101.932 Y77.277 E.01533
G1 X103.301 Y79.648 E.1382
G1 X103.313 Y79.707 E.00304
M204 S1000
;WIPE_START
G1 F8640
G1 X103.33 Y79.796 E-.02092
G1 X103.339 Y79.843 E-.01105
G1 X103.301 Y79.952 E-.02665
G1 X101.932 Y82.323 E-.63218
G1 X101.795 Y82.448 E-.04282
G1 X101.669 Y82.475 E-.02975
G1 X101.51 Y82.475 E-.03663
;WIPE_END
G1 Z.6 F720
G1 X152.811 Y130.138 F10800
G1 Z.2 F720
G1 E.8 F1500
M204 S800
;WIDTH:0.842708
G1 F1200
G1 X152.827 Y130.159 E.00176
;WIDTH:0.888026
G1 X152.861 Y130.2 E.00374
;WIDTH:0.894429
G1 X152.858 Y130.274 E.00524
G1 X152.823 Y130.309 E.0035
;WIDTH:0.852259
G1 X152.787 Y130.345 E.00343
;WIDTH:0.810089
G1 X152.752 Y130.381 E.0032
;WIDTH:0.767918
G1 X152.398 Y130.955 E.04065
;WIDTH:0.728612
G1 X152.045 Y131.528 E.03837
;WIDTH:0.689306
G1 X151.691 Y132.102 E.03625
;WIDTH:0.649999
G1 X151.332 Y132.723 E.03621
G1 X151.069 Y132.875 E.01533
G1 X148.331 Y132.875 E.13821
G1 X148.068 Y132.723 E.01533
G1 X146.699 Y130.352 E.1382
G1 X146.661 Y130.157 E.01003
G1 X146.699 Y130.048 E.00583
G1 X148.068 Y127.677 E.1382
G1 X148.205 Y127.552 E.00936
G1 X148.331 Y127.525 E.0065
G1 X151.069 Y127.525 E.13821
G1 X151.247 Y127.582 E.00943
G1 X151.332 Y127.677 E.00643
;WIDTH:0.678376
G1 X152.029 Y128.855 E.07232
;WIDTH:0.706753
G1 X152.726 Y130.034 E.0756
;WIDTH:0.752072
G1 X152.754 Y130.068 E.0026
M204 S1000
;WIPE_START
G1 F8640
G1 X152.811 Y130.138 E-.02084
G1 X152.827 Y130.159 E-.0061
G1 X152.861 Y130.2 E-.0123
G1 X152.858 Y130.274 E-.0171
G1 X152.823 Y130.309 E-.01143
G1 X152.787 Y130.345 E-.01176
G1 X152.752 Y130.381 E-.01159
G1 X152.398 Y130.955 E-.15572
G1 X152.045 Y131.528 E-.1554
G1 X151.691 Y132.102 E-.15572
G1 X151.332 Y132.723 E-.16563
G1 X151.069 Y132.875 E-.07014
G1 X151.042 Y132.875 E-.00627
;WIPE_END
G1 Z.6 F720
G1 X153.083 Y131.174 F10800
G1 Z.2 F720
G1 E.8 F1500
M204 S800
;TYPE:Perimeter
;WIDTH:0.919373
G1 F1200
G1 X153.083 Y132.673 E.10924
G1 X153.035 Y132.987 E.02315
G1 X152.866 Y133.266 E.02377
;WIDTH:0.915649
G1 X152.591 Y133.436 E.02346
G1 X151.879 Y133.504 E.0519
;WIDTH:0.877323
G1 X151.559 Y133.523 E.02224
;WIDTH:0.838997
G1 X151.24 Y133.543 E.02116
G1 X151.484 Y133.393 E.01896
;WIDTH:0.877323
G1 X151.728 Y133.243 E.01987
;WIDTH:0.915649
G1 X151.973 Y133.093 E.02085
;WIDTH:0.919373
G1 X153.038 Y131.252 E.155
M204 S1000
;WIPE_START
G1 F8640
G1 X153.083 Y131.174 E-.02079
G1 X153.083 Y132.673 E-.34612
G1 X153.035 Y132.987 E-.07335
G1 X152.866 Y133.266 E-.07532
G1 X152.591 Y133.436 E-.07465
G1 X151.879 Y133.504 E-.16515
G1 X151.686 Y133.516 E-.04462
;WIPE_END
G1 Z.6 F720
G1 X151.24 Y133.543 F10800
G1 Z.2 F720
G1 E.8 F1500
M204 S800
;WIDTH:0.80067
G1 F1200
G1 X151.069 Y133.55 E.01078
;WIDTH:0.785842
G1 X148.331 Y133.55 E.16914
M204 S1000
;WIPE_START
G1 F8640
G1 X151.069 Y133.55 E-.63221
G1 X151.24 Y133.543 E-.03952
;WIPE_END
G1 E-.12827 F2100
G1 Z.6 F720
G1 X101.669 Y76.45 F10800
G1 Z.2 F720
G1 E.8 F1500
M204 S800
;WIDTH:0.785836
G1 F1200
G1 X102.046 Y76.427 E.02333
;WIDTH:0.740557
G1 X102.422 Y76.405 E.02185
;WIDTH:0.695278
G1 X102.799 Y76.382 E.02049
;WIDTH:0.649999
G1 X152.253 Y76.382 E2.49638
G1 X152.68 Y76.453 E.02185
G1 X152.96 Y76.64 E.017
G1 X153.147 Y76.92 E.017
G1 X153.218 Y77.347 E.02185
G1 X153.218 Y129.729 E2.64418
G1 X151.858 Y127.373 E.13732
G1 X151.602 Y127.09 E.01926
G1 X151.317 Y126.952 E.01598
