; generated by PrusaSlicer 2.8.0+win64 on 2024-08-21 at 14:24:48 UTC


;
;
; 

; external perimeters extrusion width = 0.65mm
; perimeters extrusion width = 0.65mm
; infill extrusion width = 0.65mm
; solid infill extrusion width = 0.65mm
; top infill extrusion width = 0.60mm
; first layer extrusion width = 0.65mm

M73 P0 R31
M73 Q0 S31
M201 X1000 Y1000 Z200 E5000 ; sets maximum accelerations, mm/sec^2
M203 X200 Y200 Z12 E120 ; sets maximum feedrates, mm / sec
M204 S1250 T1250 ; sets acceleration (S) and retract acceleration (R), mm/sec^2
M205 X8.00 Y8.00 Z0.40 E4.50 ; sets the jerk limits, mm/sec
M205 S0 T0 ; sets the minimum extruding and travel feed rate, mm/sec

; printing object Case_top id:0 copy 0
; stop printing object Case_top id:0 copy 0

;TYPE:Custom
M862.3 P "MK3S" ; printer model check
M862.1 P0.6 ; nozzle diameter check
M115 U3.14.0 ; tell printer latest fw version
G90 ; use absolute coordinates
M83 ; extruder relative mode
M104 S215 ; set extruder temp
M140 S60 ; set bed temp
M190 S60 ; wait for bed temp
M109 S215 ; wait for extruder temp
G28 W ; home all without mesh bed level
G80 X3.13061 Y5.90969 W74.1142 H74.9142 ; mesh bed levelling

G1 Z0.2 F720
G1 Y-3 F1000 ; go outside print area
G92 E0
G1 X60 E9 F1000 ; intro line
G1 X100 E12.5 F1000 ; intro line

G92 E0
M221 S95
G21 ; set units to millimeters
G90 ; use absolute coordinates
M83 ; use relative distances for extrusion

M900 K0.04 ; Filament gcode LA 1.5
M900 K18 ; Filament gcode LA 1.0




M107
;LAYER_CHANGE
;Z:0.2
;HEIGHT:0.2
G1 E-.8 F2100
G1 Z.6 F720
G1 X6.957 Y8.278 F10800
G1 Z.2 F720
G1 E.8 F1500
M204 S800
;TYPE:Skirt/Brim
;WIDTH:0.65
G1 F1200
G1 X8.502 Y7.272 E.09307
G1 X10.217 Y6.585 E.09326
G1 X11.122 Y6.37 E.04695
G1 X12.153 Y6.238 E.05247
G1 X67.657 Y6.214 E2.80178
G1 X69.48 Y6.415 E.09258
G1 X71.006 Y6.876 E.08047
G1 X72.645 Y7.72 E.09306
G1 X74.005 Y8.79 E.08735
G1 X75.213 Y10.183 E.09307
G1 X75.94 Y11.393 E.07126
G1 X76.568 Y12.992 E.08672
G1 X76.883 Y14.563 E.08088
G1 X76.941 Y15.552 E.05001
G1 X76.937 Y71.361 E2.81718
G1 X76.736 Y73.074 E.08706
G1 X76.314 Y74.494 E.07478
G1 X75.716 Y75.758 E.07059
G1 X74.727 Y77.179 E.08739
G1 X74.098 Y77.855 E.04661
G1 X73.317 Y78.535 E.05227
G1 X72.562 Y79.066 E.04659
G1 X71.355 Y79.711 E.06908
G1 X70.387 Y80.079 E.05228
G1 X69.495 Y80.315 E.04658
G1 X67.657 Y80.52 E.09336
G1 X12.593 Y80.517 E2.77957
G1 X10.88 Y80.315 E.08707
G1 X9.46 Y79.893 E.07478
G1 X8.196 Y79.295 E.07059
G1 X6.775 Y78.306 E.08739
G1 X6.1 Y77.678 E.04654
G1 X5.42 Y76.896 E.05231
G1 X4.889 Y76.141 E.04659
G1 X4.244 Y74.934 E.06908
G1 X3.875 Y73.966 E.05229
G1 X3.639 Y73.074 E.04658
G1 X3.435 Y71.236 E.09335
G1 X3.438 Y15.373 E2.8199
G1 X3.636 Y13.674 E.08634
M73 P1 R30
M73 Q1 S31
G1 X4.056 Y12.254 E.07475
G1 X4.652 Y10.989 E.07059
G1 X5.638 Y9.566 E.08739
G1 X6.893 Y8.341 E.08853
M204 S1000
;WIPE_START
G1 F8640
G1 X6.957 Y8.278 E-.02074
G1 X8.502 Y7.272 E-.4257
G1 X9.923 Y6.703 E-.35356
;WIPE_END
G1 Z.6 F720
G1 X8.743 Y10.399 F10800
G1 Z.2 F720
G1 E.8 F1500
M204 S800
G1 F1200
G1 X8.916 Y10.244 E.01173
G1 X10.101 Y9.553 E.06924
G1 X11.346 Y9.134 E.06631
G1 X12.716 Y8.964 E.06969
G1 X67.687 Y8.965 E2.77487
G1 X68.946 Y9.115 E.064
G1 X70.177 Y9.51 E.06526
G1 X71.258 Y10.102 E.06221
G1 X72.211 Y10.882 E.06217
G1 X73 Y11.819 E.06183
G1 X73.63 Y12.945 E.06513
G1 X74.019 Y14.117 E.06233
G1 X74.182 Y15.358 E.06318
G1 X74.191 Y71.221 E2.8199
G1 X74.069 Y72.377 E.05868
G1 X73.775 Y73.425 E.05494
G1 X73.258 Y74.512 E.06076
G1 X72.526 Y75.518 E.0628
G1 X71.573 Y76.405 E.06572
G1 X70.445 Y77.102 E.06693
G1 X68.984 Y77.613 E.07813
G1 X67.652 Y77.77 E.0677
G1 X12.728 Y77.77 E2.7725
G1 X11.54 Y77.641 E.06032
G1 X10.38 Y77.299 E.06105
G1 X9.304 Y76.753 E.06091
G1 X8.377 Y76.053 E.05864
G1 X7.465 Y75.039 E.06884
G1 X6.774 Y73.853 E.06929
G1 X6.355 Y72.608 E.06631
G1 X6.185 Y71.238 E.06969
G1 X6.185 Y15.507 E2.81324
G1 X6.313 Y14.319 E.06032
G1 X6.656 Y13.159 E.06106
G1 X7.201 Y12.083 E.06089
G1 X7.901 Y11.156 E.05864
G1 X8.677 Y10.459 E.05265
M204 S1000
G1 X8.677 Y10.459 F10800
G1 X9.08 Y10.911
M204 S800
G1 F1200
G1 X9.296 Y10.718 E.01462
G1 X10.327 Y10.118 E.06022
G1 X11.454 Y9.732 E.06013
G1 X12.736 Y9.571 E.06522
G1 X67.67 Y9.572 E2.77301
G1 X68.792 Y9.703 E.05702
M73 P2 R30
G1 X69.915 Y10.058 E.05945
G1 X70.896 Y10.59 E.05633
G1 X71.803 Y11.333 E.05919
M73 Q2 S31
G1 X72.515 Y12.185 E.05605
G1 X73.085 Y13.213 E.05934
G1 X73.433 Y14.277 E.05651
G1 X73.577 Y15.415 E.0579
G1 X73.584 Y71.205 E2.81622
G1 X73.477 Y72.241 E.05257
G1 X73.215 Y73.189 E.04965
G1 X72.723 Y74.225 E.05789
G1 X72.055 Y75.134 E.05694
G1 X71.184 Y75.939 E.05987
G1 X70.192 Y76.55 E.05881
G1 X69.523 Y76.826 E.03653
G1 X68.841 Y77.022 E.03582
G1 X67.635 Y77.163 E.06129
G1 X12.743 Y77.163 E2.77089
G1 X11.683 Y77.051 E.05381
G1 X10.626 Y76.743 E.05558
G1 X9.647 Y76.252 E.05529
G1 X8.767 Y75.587 E.05568
G1 X7.939 Y74.658 E.06282
G1 X7.338 Y73.627 E.06024
G1 X6.953 Y72.501 E.06007
G1 X6.792 Y71.219 E.06522
G1 X6.792 Y15.523 E2.81147
G1 X6.904 Y14.462 E.05386
M73 Q2 S30
G1 X7.211 Y13.405 E.05556
G1 X7.703 Y12.426 E.05531
G1 X8.367 Y11.547 E.05561
G1 X9.013 Y10.971 E.04369
M204 S1000
G1 X9.013 Y10.971 F10800
G1 X9.413 Y11.424
M204 S800
G1 F1200
G1 X9.675 Y11.194 E.0176
G1 X10.603 Y10.659 E.05407
G1 X11.617 Y10.317 E.05402
G1 X12.754 Y10.178 E.05782
G1 X67.651 Y10.179 E2.77114
G1 X68.69 Y10.302 E.05281
G1 X69.7 Y10.627 E.05356
G1 X70.578 Y11.108 E.05054
G1 X71.394 Y11.782 E.05342
G1 X72.028 Y12.549 E.05023
G1 X72.538 Y13.478 E.0535
G1 X72.846 Y14.434 E.0507
G1 X72.973 Y15.47 E.05269
G1 X72.977 Y71.19 E2.81268
G1 X72.884 Y72.107 E.04653
G1 X72.653 Y72.957 E.04446
G1 X72.215 Y73.89 E.05203
G1 X71.584 Y74.75 E.05384
G1 X70.796 Y75.471 E.05392
G1 X69.936 Y75.999 E.05094
G1 X68.697 Y76.432 E.06625
G1 X67.618 Y76.556 E.05483
G1 X12.76 Y76.556 E2.76917
G1 X11.776 Y76.45 E.04996
M73 P3 R30
M73 Q3 S30
G1 X10.826 Y76.169 E.05001
G1 X9.947 Y75.724 E.04973
G1 X9.16 Y75.123 E.04999
G1 X8.414 Y74.28 E.05682
G1 X7.88 Y73.352 E.05405
G1 X7.538 Y72.337 E.05407
G1 X7.399 Y71.201 E.05777
G1 X7.399 Y15.539 E2.80976
G1 X7.504 Y14.555 E.04995
G1 X7.785 Y13.605 E.05001
G1 X8.231 Y12.726 E.04976
G1 X8.831 Y11.939 E.04996
G1 X9.346 Y11.484 E.03469
M204 S1000
G1 X9.744 Y11.939 F10800
M204 S800
G1 F1200
G1 X10.05 Y11.671 E.02053
G1 X10.875 Y11.202 E.0479
G1 X11.778 Y10.904 E.048
G1 X12.771 Y10.785 E.05048
G1 X67.634 Y10.786 E2.76942
G1 X68.536 Y10.89 E.04583
G1 X69.438 Y11.175 E.04775
G1 X70.217 Y11.597 E.04472
G1 X70.947 Y12.194 E.0476
G1 X71.512 Y12.87 E.04447
G1 X71.969 Y13.693 E.04752
G1 X72.258 Y14.591 E.04762
G1 X72.368 Y15.522 E.04732
G1 X72.37 Y71.176 E2.80935
G1 X72.291 Y71.976 E.04058
G1 X72.091 Y72.727 E.03923
G1 X71.706 Y73.559 E.04628
G1 X71.149 Y74.326 E.04785
G1 X70.451 Y74.971 E.04797
G1 X69.68 Y75.448 E.04577
G1 X69.122 Y75.68 E.0305
G1 X68.556 Y75.841 E.0297
G1 X67.601 Y75.949 E.04851
G1 X12.777 Y75.949 E2.76745
G1 X11.87 Y75.85 E.04606
G1 X11.029 Y75.597 E.04433
G1 X10.251 Y75.197 E.04416
G1 X9.555 Y74.661 E.04434
G1 X8.892 Y73.904 E.0508
G1 X8.423 Y73.079 E.0479
G1 X8.124 Y72.177 E.04797
G1 X8.006 Y71.183 E.05053
G1 X8.006 Y15.556 E2.80799
G1 X8.105 Y14.65 E.04601
G1 X8.358 Y13.808 E.04438
G1 X8.758 Y13.03 E.04416
G1 X9.293 Y12.334 E.04431
G1 X9.677 Y11.998 E.02576
M204 S1000
G1 X9.677 Y11.998 F10800
G1 X10.072 Y12.455
M204 S800
G1 F1200
G1 X10.423 Y12.152 E.02341
G1 X11.144 Y11.747 E.04174
G1 X11.935 Y11.491 E.04197
G1 X12.788 Y11.392 E.04335
G1 X67.616 Y11.393 E2.76766
G1 X68.435 Y11.489 E.04163
M73 P4 R30
G1 X69.223 Y11.743 E.04179
G1 X69.898 Y12.114 E.03888
M73 Q4 S30
G1 X70.537 Y12.643 E.04188
G1 X71.025 Y13.233 E.03865
G1 X71.422 Y13.957 E.04168
G1 X71.67 Y14.744 E.04165
G1 X71.762 Y15.572 E.04205
G1 X71.762 Y71.162 E2.80612
G1 X71.697 Y71.847 E.03473
G1 X71.527 Y72.501 E.03411
G1 X71.195 Y73.23 E.04044
G1 X70.711 Y73.904 E.04189
G1 X70.103 Y74.473 E.04203
G1 X69.424 Y74.897 E.04041
G1 X68.417 Y75.25 E.05386
G1 X67.585 Y75.342 E.04225
G1 X12.792 Y75.342 E2.76589
G1 X12.018 Y75.26 E.03929
M73 P4 R29
G1 X11.232 Y75.024 E.04143
G1 X10.557 Y74.672 E.03843
G1 X9.953 Y74.202 E.03863
G1 X9.373 Y73.532 E.04473
G1 X8.968 Y72.81 E.04179
G1 X8.711 Y72.019 E.04198
G1 X8.613 Y71.166 E.04334
G1 X8.613 Y15.571 E2.80637
G1 X8.694 Y14.797 E.03928
G1 X8.931 Y14.011 E.04144
G1 X9.282 Y13.336 E.0384
G1 X9.753 Y12.732 E.03866
G1 X10.004 Y12.514 E.01678
M204 S1000
G1 X10.004 Y12.514 F10800
G1 X10.398 Y12.968
M204 S800
G1 F1200
G1 X10.75 Y12.664 E.02348
G1 X11.366 Y12.313 E.03579
G1 X12.038 Y12.09 E.03574
G1 X12.806 Y11.999 E.03904
G1 X67.6 Y12.001 E2.76594
G1 X68.282 Y12.078 E.03465
G1 X68.958 Y12.291 E.03578
G1 X69.579 Y12.631 E.03574
G1 X70.123 Y13.088 E.03586
G1 X70.535 Y13.593 E.0329
G1 X70.873 Y14.218 E.03587
G1 X71.081 Y14.893 E.03565
G1 X71.155 Y15.587 E.03523
G1 X71.155 Y71.147 E2.80461
G1 X70.962 Y72.277 E.05787
G1 X70.681 Y72.906 E.03478
G1 X70.271 Y73.485 E.03581
G1 X69.752 Y73.976 E.03606
G1 X69.166 Y74.347 E.03501
G1 X68.691 Y74.544 E.02596
G1 X67.569 Y74.734 E.05744
G1 X12.807 Y74.734 E2.76432
G1 X12.16 Y74.67 E.03282
M73 P5 R29
G1 X11.482 Y74.47 E.03568
G1 X10.906 Y74.175 E.03267
G1 X10.349 Y73.741 E.03564
G1 X9.885 Y73.205 E.03579
G1 X9.534 Y72.589 E.03579
G1 X9.311 Y71.916 E.03579
G1 X9.22 Y71.148 E.03904
G1 X9.22 Y15.586 E2.80471
G1 X9.285 Y14.939 E.03282
M73 Q5 S30
G1 X9.485 Y14.261 E.03568
G1 X9.78 Y13.685 E.03267
G1 X10.214 Y13.128 E.03564
G1 X10.33 Y13.027 E.00776
M204 S1000
G1 X10.33 Y13.027 F10800
G1 X10.721 Y13.486
M204 S800
G1 F1200
G1 X11.119 Y13.146 E.02642
G1 X11.634 Y12.859 E.02976
G1 X12.194 Y12.677 E.02972
G1 X12.823 Y12.606 E.03195
G1 X67.584 Y12.608 E2.76427
G1 X68.133 Y12.667 E.02787
G1 X68.698 Y12.84 E.02983
G1 X69.218 Y13.12 E.02981
G1 X69.672 Y13.496 E.02976
G1 X70.045 Y13.953 E.02978
G1 X70.322 Y14.474 E.02979
G1 X70.491 Y15.038 E.02972
G1 X70.548 Y15.602 E.02862
G1 X70.548 Y71.133 E2.80314
G1 X70.395 Y72.058 E.04733
G1 X70.164 Y72.585 E.02905
G1 X69.827 Y73.07 E.02981
G1 X69.398 Y73.483 E.03006
G1 X68.908 Y73.797 E.02938
G1 X68.146 Y74.065 E.04077
G1 X67.553 Y74.127 E.0301
G1 X12.822 Y74.127 E2.76276
G1 X12.253 Y74.069 E.02887
M73 Q5 S29
G1 X11.687 Y73.898 E.02985
G1 X11.214 Y73.651 E.02694
G1 X10.75 Y73.284 E.02986
G1 X10.367 Y72.836 E.02975
G1 X10.08 Y72.321 E.02976
G1 X9.898 Y71.76 E.02977
G1 X9.827 Y71.132 E.0319
G1 X9.827 Y15.601 E2.80314
G1 X9.886 Y15.032 E.02888
G1 X10.057 Y14.466 E.02985
G1 X10.304 Y13.993 E.02694
G1 X10.656 Y13.548 E.02864
M204 S1000
G1 X10.656 Y13.548 F10800
G1 X11.122 Y13.935
M204 S800
G1 F1200
G1 X11.897 Y13.407 E.04734
G1 X12.838 Y13.213 E.0485
G1 X67.567 Y13.215 E2.76266
G1 X68.484 Y13.409 E.04731
G1 X69.257 Y13.939 E.04731
G1 X69.768 Y14.725 E.04732
G1 X69.941 Y15.615 E.04577
G1 X69.941 Y71.118 E2.80173
G1 X69.827 Y71.843 E.03705
M73 P6 R29
M73 Q6 S29
G1 X69.645 Y72.27 E.02343
G1 X69.039 Y72.992 E.04758
G1 X68.265 Y73.407 E.04433
G1 X67.538 Y73.52 E.03714
G1 X12.836 Y73.52 E2.7613
G1 X11.94 Y73.345 E.04608
G1 X11.156 Y72.832 E.04729
G1 X10.627 Y72.058 E.04732
G1 X10.434 Y71.117 E.04849
G1 X10.434 Y15.615 E2.80168
G1 X10.609 Y14.719 E.04608
G1 X11.073 Y14.01 E.04277
M204 S1000
;WIPE_START
G1 F8640
G1 X11.122 Y13.935 E-.02069
G1 X11.897 Y13.407 E-.21653
G1 X12.838 Y13.213 E-.22185
G1 X14.315 Y13.213 E-.34093
;WIPE_END
G1 Z.6 F720
; printing object Case_top id:0 copy 0
G1 X38.292 Y43.977 F10800
G1 Z.2 F720
G1 E.8 F1500
M204 S800
;TYPE:External perimeter
;WIDTH:0.948442
G1 F1200
G1 X38.264 Y43.949 E.00298
;WIDTH:0.944998
G1 X34.416 Y40.1 E.40824
M204 S1000
;WIPE_START
G1 F8640
G1 X36.866 Y42.55 E-.8
;WIPE_END
G1 Z.6 F720
G1 X32.773 Y46.927 F10800
G1 Z.2 F720
G1 E.8 F1500
M204 S800
;WIDTH:0.711518
G1 F1200
G1 X32.352 Y46.53 E.03217
;WIDTH:0.683322
G1 X32.302 Y46.477 E.00388
M204 S1000
;WIPE_START
G1 F8640
G1 X32.352 Y46.53 E-.01682
G1 X32.773 Y46.927 E-.13361
;WIPE_END
G1 E-.64957 F2100
G1 Z.6 F720
G1 X29.938 Y48.469 F10800
G1 Z.2 F720
G1 E.8 F1500
M204 S800
;WIDTH:0.559218
G1 F1200
G1 X29.589 Y48.802 E.02071
;WIDTH:0.569344
G1 X29.404 Y49.08 E.01462
G1 X29.245 Y49.466 E.01827
;WIDTH:0.603104
G1 X29.216 Y49.555 E.00436
;WIDTH:0.643642
G1 X29.188 Y49.645 E.00471
;WIDTH:0.68418
G1 X29.159 Y49.734 E.00499
;WIDTH:0.724718
G1 X29.131 Y49.823 E.00529
;WIDTH:0.765256
G1 X29.103 Y49.913 E.00566
;WIDTH:0.807882
G1 X29.084 Y49.943 E.00226
;WIDTH:0.850507
G1 X29.065 Y49.974 E.00244
;WIDTH:0.893132
G1 X29.047 Y50.004 E.00247
;WIDTH:0.935757
G1 X29.028 Y50.035 E.0027
;WIDTH:0.978382
G1 X29.01 Y50.065 E.00272
G1 X29.063 Y50.148 E.00766
;WIDTH:0.932079
G1 X29.116 Y50.23 E.00722
;WIDTH:0.885775
G1 X29.17 Y50.313 E.00694
;WIDTH:0.839472
G1 X29.223 Y50.395 E.00647
;WIDTH:0.793169
G1 X29.277 Y50.478 E.00618
;WIDTH:0.746865
G1 X29.33 Y50.56 E.00572
;WIDTH:0.700562
G1 X29.383 Y50.643 E.00539
;WIDTH:0.654258
G1 X29.776 Y51.061 E.02916
;WIDTH:0.62102
G1 X29.816 Y51.099 E.00265
M204 S1000
;WIPE_START
G1 F8640
G1 X29.776 Y51.061 E-.01274
G1 X29.383 Y50.643 E-.13248
G1 X29.33 Y50.56 E-.02274
G1 X29.277 Y50.478 E-.02254
G1 X29.223 Y50.395 E-.02286
G1 X29.17 Y50.313 E-.02254
G1 X29.116 Y50.23 E-.02286
G1 X29.063 Y50.148 E-.02254
G1 X29.01 Y50.065 E-.02274
G1 X29.028 Y50.035 E-.00808
G1 X29.047 Y50.004 E-.0084
G1 X29.065 Y49.974 E-.00808
G1 X29.084 Y49.943 E-.0084
G1 X29.103 Y49.913 E-.0082
G1 X29.131 Y49.823 E-.02176
G1 X29.159 Y49.734 E-.02154
G1 X29.188 Y49.645 E-.02161
G1 X29.216 Y49.555 E-.02176
G1 X29.245 Y49.466 E-.02161
G1 X29.404 Y49.08 E-.09639
G1 X29.589 Y48.802 E-.07711
G1 X29.938 Y48.469 E-.11138
;WIPE_END
G1 E-.06164 F2100
G1 Z.6 F720
G1 X28.676 Y49.903 F10800
G1 Z.2 F720
G1 E.8 F1500
M204 S800
;WIDTH:0.83803
G1 F1200
G1 X28.759 Y49.944 E.00612
;WIDTH:0.884814
G1 X28.843 Y49.984 E.00651
;WIDTH:0.931598
G1 X28.926 Y50.025 E.00684
;WIDTH:0.978382
G1 X29.01 Y50.065 E.00724
M204 S1000
;WIPE_START
G1 F8640
G1 X28.926 Y50.025 E-.02148
G1 X28.843 Y49.984 E-.02138
G1 X28.759 Y49.944 E-.02148
G1 X28.676 Y49.903 E-.02138
;WIPE_END
G1 E-.71428 F2100
G1 Z.6 F720
G1 X28.245 Y51.735 F10800
G1 Z.2 F720
G1 E.8 F1500
M204 S800
;WIDTH:0.664824
G1 F1200
G1 X28.505 Y51.465 E.01938
M204 S1000
;WIPE_START
G1 F8640
G1 X28.245 Y51.735 E-.08655
;WIPE_END
G1 E-.71345 F2100
G1 Z.6 F720
G1 X25.573 Y54.234 F10800
G1 Z.2 F720
G1 E.8 F1500
M204 S800
;WIDTH:0.851282
G1 F1200
G1 X25.192 Y53.883 E.03482
;WIDTH:0.841464
G1 X24.901 Y53.569 E.02843
M204 S1000
;WIPE_START
G1 F8640
G1 X25.192 Y53.883 E-.09885
G1 X25.573 Y54.234 E-.11962
;WIPE_END
G1 E-.58153 F2100
G1 Z.6 F720
G1 X29.555 Y61.162 F10800
G1 Z.2 F720
G1 E.8 F1500
M204 S800
;TYPE:Perimeter
;WIDTH:0.813266
G1 F1200
G1 X29.428 Y61.046 E.01102
;WIDTH:0.798342
G1 X28.284 Y59.902 E.10162
M204 S1000
;WIPE_START
G1 F8640
G1 X29.428 Y61.046 E-.37357
G1 X29.555 Y61.162 E-.03972
;WIPE_END
G1 E-.38671 F2100
G1 Z.6 F720
G1 X53.421 Y36.719 F10800
G1 Z.2 F720
G1 E.8 F1500
M204 S800
;WIDTH:1.02044
G1 F1200
G1 X52.924 Y36.459 E.04559
;WIDTH:1.00825
G1 X52.717 Y36.378 E.01784
;WIDTH:1.03956
G1 X52.509 Y36.297 E.0185
M204 S1000
;WIPE_START
G1 F8640
G1 X52.717 Y36.378 E-.05154
G1 X52.924 Y36.459 E-.05133
G1 X53.421 Y36.719 E-.12951
;WIPE_END
G1 E-.56762 F2100
G1 Z.6 F720
G1 X24.792 Y62.106 F10800
G1 Z.2 F720
G1 E.8 F1500
M204 S800
;WIDTH:0.649999
G1 F1200
G1 X25.304 Y61.594 E.03655
G1 X25.542 Y61.423 E.01479
G1 X25.607 Y61.401 E.00346
G1 X25.703 Y61.213 E.01066
G1 X26.944 Y59.954 E.08924
G1 X27.295 Y59.736 E.02086
G1 X27.582 Y59.688 E.01469
;WIDTH:0.699447
G1 X27.816 Y59.759 E.01335
;WIDTH:0.748895
G1 X28.05 Y59.831 E.01437
;WIDTH:0.798342
G1 X28.284 Y59.902 E.01536
G1 X28.213 Y59.668 E.01536
;WIDTH:0.748895
G1 X28.141 Y59.434 E.01437
;WIDTH:0.699447
G1 X28.07 Y59.199 E.0134
;WIDTH:0.649999
G1 X28.118 Y58.913 E.01464
G1 X28.337 Y58.562 E.02088
G1 X30.563 Y56.335 E.15895
G1 X30.784 Y56.173 E.01383
G1 X31.099 Y56.075 E.01665
G1 X31.427 Y56.095 E.01659
G1 X31.748 Y56.253 E.01806
G1 X32.062 Y55.778 E.02874
G1 X32.479 Y55.384 E.02896
G1 X32.929 Y55.105 E.02673
G1 X33.189 Y55 E.01415
G1 X33.896 Y54.873 E.03626
G1 X33.978 Y54.281 E.03017
G1 X34.233 Y53.721 E.03106
G1 X34.508 Y53.356 E.02307
G1 X34.864 Y52.975 E.02632
