; generated by PrusaSlicer 2.8.0+win64 on 2024-08-21 at 14:43:13 UTC


;
;
; 

; external perimeters extrusion width = 0.65mm
; perimeters extrusion width = 0.65mm
; infill extrusion width = 0.65mm
; solid infill extrusion width = 0.65mm
; top infill extrusion width = 0.60mm
; first layer extrusion width = 0.65mm

M73 P0 R42
M73 Q0 S42
M201 X1000 Y1000 Z200 E5000 ; sets maximum accelerations, mm/sec^2
M203 X200 Y200 Z12 E120 ; sets maximum feedrates, mm / sec
M204 S1250 T1250 ; sets acceleration (S) and retract acceleration (R), mm/sec^2
M205 X8.00 Y8.00 Z0.40 E4.50 ; sets the jerk limits, mm/sec
M205 S0 T0 ; sets the minimum extruding and travel feed rate, mm/sec

; printing object Case_bottom id:0 copy 0
; stop printing object Case_bottom id:0 copy 0

;TYPE:Custom
M862.3 P "MK3S" ; printer model check
M862.1 P0.6 ; nozzle diameter check
M115 U3.14.0 ; tell printer latest fw version
G90 ; use absolute coordinates
M83 ; extruder relative mode
M104 S230 ; set extruder temp
M140 S85 ; set bed temp
M190 S85 ; wait for bed temp
M109 S230 ; wait for extruder temp
G28 W ; home all without mesh bed level
G80 X3.45212 Y7.54683 W73.7142 H74.5142 ; mesh bed levelling

G1 Z0.2 F720
G1 Y-3 F1000 ; go outside print area
G92 E0
G1 X60 E9 F1000 ; intro line
G1 X100 E12.5 F1000 ; intro line

G92 E0
M221 S95
G21 ; set units to millimeters
G90 ; use absolute coordinates
M83 ; use relative distances for extrusion

M900 K0.04 ; Filament gcode LA 1.5
M900 K24 ; Filament gcode LA 1.0




M107
;LAYER_CHANGE
;Z:0.2
;HEIGHT:0.2
G1 E-1 F2100
G1 Z.4 F720
G1 X7.217 Y9.86 F10800
G1 Z.2 F720
G1 E1 F1500
M204 S800
;TYPE:Skirt/Brim
;WIDTH:0.65
G1 F1200
G1 X8.731 Y8.878 E.09109
G1 X10.407 Y8.211 E.09106
G1 X11.286 Y8.003 E.0456
G1 X12.294 Y7.874 E.0513
G1 X67.773 Y7.851 E2.80052
G1 X69.332 Y8.003 E.07907
G1 X71.065 Y8.503 E.09105
G1 X72.668 Y9.332 E.0911
G1 X73.996 Y10.38 E.0854
G1 X75.177 Y11.744 E.09108
G1 X75.886 Y12.927 E.06962
G1 X76.503 Y14.502 E.08539
G1 X76.83 Y16.276 E.09106
G1 X76.859 Y72.793 E2.85291
G1 X76.71 Y74.227 E.07278
G1 X76.251 Y75.855 E.08538
G1 X75.661 Y77.101 E.06959
G1 X74.694 Y78.489 E.08539
G1 X74.078 Y79.15 E.04561
G1 X73.312 Y79.817 E.05127
G1 X72.573 Y80.336 E.04558
G1 X71.4 Y80.963 E.06714
G1 X70.451 Y81.325 E.05127
G1 X69.577 Y81.556 E.04563
G1 X67.773 Y81.757 E.09163
G1 X12.72 Y81.754 E2.77901
G1 X11.287 Y81.605 E.07273
G1 X9.658 Y81.145 E.08545
G1 X8.412 Y80.556 E.06957
G1 X7.024 Y79.589 E.08539
G1 X6.363 Y78.973 E.04561
G1 X5.696 Y78.207 E.05127
G1 X5.177 Y77.467 E.04563
G1 X4.55 Y76.295 E.0671
G1 X4.189 Y75.345 E.0513
G1 X3.957 Y74.472 E.0456
G1 X3.756 Y72.668 E.09163
G1 X3.759 Y16.815 E2.8194
G1 X3.908 Y15.381 E.07278
G1 X4.368 Y13.753 E.0854
G1 X4.957 Y12.507 E.06957
G1 X5.924 Y11.119 E.08539
G1 X7.153 Y9.923 E.08657
M204 S1000
;WIPE_START
G1 F8640
G1 X7.217 Y9.86 E-.02074
G1 X8.731 Y8.878 E-.41668
G1 X10.407 Y8.211 E-.41651
G1 X11.023 Y8.065 E-.14607
;WIPE_END
G1 Z.4 F720
G1 X9.007 Y11.974 F10800
G1 Z.2 F720
G1 E1 F1500
M204 S800
G1 F1200
G1 X9.141 Y11.853 E.00911
G1 X10.294 Y11.178 E.06744
G1 X11.503 Y10.768 E.06444
G1 X12.842 Y10.601 E.06811
G1 X67.769 Y10.601 E2.77265
G1 X68.995 Y10.742 E.0623
M73 P0 R41
G1 X70.189 Y11.118 E.06319
G1 X71.242 Y11.688 E.06044
G1 X72.175 Y12.445 E.06065
G1 X72.981 Y13.406 E.06331
G1 X73.564 Y14.453 E.06049
G1 X73.956 Y15.649 E.06353
G1 X74.104 Y16.805 E.05883
G1 X74.112 Y72.658 E2.8194
G1 X73.99 Y73.801 E.05803
M73 P1 R41
M73 Q1 S42
G1 X73.661 Y74.922 E.05897
G1 X73.138 Y75.962 E.05876
G1 X72.468 Y76.857 E.05644
G1 X71.487 Y77.748 E.0669
G1 X70.328 Y78.428 E.06783
G1 X69.116 Y78.839 E.0646
G1 X67.776 Y79.007 E.06817
G1 X12.855 Y79.007 E2.77235
G1 X11.712 Y78.884 E.05803
G1 X10.591 Y78.556 E.05896
G1 X9.551 Y78.033 E.05876
G1 X8.656 Y77.363 E.05644
G1 X7.765 Y76.382 E.0669
G1 X7.085 Y75.223 E.06783
G1 X6.674 Y74.011 E.0646
G1 X6.506 Y72.671 E.06817
G1 X6.506 Y16.949 E2.81278
G1 X6.629 Y15.805 E.05808
G1 X6.958 Y14.684 E.05897
G1 X7.459 Y13.682 E.05655
G1 X8.158 Y12.742 E.05913
G1 X8.941 Y12.034 E.05329
M204 S1000
G1 X8.941 Y12.034 F10800
G1 X9.345 Y12.486
M204 S800
G1 F1200
G1 X9.523 Y12.326 E.01208
G1 X10.52 Y11.742 E.05833
G1 X11.611 Y11.366 E.05825
G1 X12.862 Y11.208 E.06365
G1 X67.752 Y11.208 E2.77079
G1 X68.843 Y11.33 E.05542
G1 X69.929 Y11.668 E.05741
G1 X70.882 Y12.178 E.05456
G1 X71.768 Y12.897 E.0576
G1 X72.495 Y13.771 E.05739
G1 X73.018 Y14.72 E.0547
G1 X73.369 Y15.807 E.05766
G1 X73.499 Y16.86 E.05356
G1 X73.505 Y72.641 E2.81576
G1 X73.389 Y73.708 E.05418
G1 X73.088 Y74.722 E.05339
G1 X72.61 Y75.662 E.05323
G1 X72.002 Y76.467 E.05092
G1 X71.104 Y77.276 E.06101
G1 X70.101 Y77.864 E.05869
G1 X69.008 Y78.241 E.05836
G1 X67.757 Y78.4 E.06366
G1 X12.872 Y78.4 E2.77053
G1 X11.805 Y78.284 E.05418
G1 X10.792 Y77.982 E.05336
G1 X9.851 Y77.504 E.05328
G1 X9.046 Y76.897 E.05089
G1 X8.237 Y75.999 E.06101
G1 X7.649 Y74.996 E.05869
G1 X7.272 Y73.903 E.05836
G1 X7.113 Y72.651 E.06371
G1 X7.113 Y16.965 E2.81097
G1 X7.22 Y15.947 E.05167
G1 X7.513 Y14.93 E.05343
G1 X7.989 Y13.978 E.05373
G1 X8.625 Y13.131 E.05347
G1 X9.278 Y12.546 E.04426
M204 S1000
G1 X9.278 Y12.546 F10800
G1 X9.68 Y12.998
M204 S800
G1 F1200
G1 X9.902 Y12.801 E.01498
G1 X10.797 Y12.283 E.0522
G1 X11.775 Y11.951 E.05214
G1 X12.88 Y11.815 E.0562
G1 X67.735 Y11.815 E2.76902
G1 X68.745 Y11.93 E.05131
G1 X69.718 Y12.237 E.0515
G1 X70.567 Y12.697 E.04874
G1 X71.36 Y13.347 E.05176
G1 X72.008 Y14.134 E.05146
G1 X72.471 Y14.983 E.04882
G1 X72.782 Y15.962 E.05185
G1 X72.895 Y16.913 E.04834
G1 X72.898 Y72.625 E2.81228
G1 X72.799 Y73.564 E.04766
M73 P2 R41
M73 Q2 S42
G1 X72.532 Y74.475 E.04792
G1 X72.108 Y75.319 E.04768
G1 X71.536 Y76.077 E.04793
G1 X70.724 Y76.801 E.05492
G1 X69.824 Y77.324 E.05254
G1 X68.843 Y77.656 E.05228
G1 X67.738 Y77.793 E.05621
G1 X12.888 Y77.793 E2.76877
G1 X11.949 Y77.693 E.04767
G1 X11.038 Y77.427 E.04791
G1 X10.194 Y77.003 E.04768
G1 X9.436 Y76.43 E.04797
G1 X8.712 Y75.619 E.05488
G1 X8.19 Y74.719 E.05252
G1 X7.857 Y73.738 E.05229
G1 X7.72 Y72.633 E.05621
G1 X7.72 Y16.981 E2.80925
G1 X7.821 Y16.039 E.04782
M73 Q2 S41
G1 X8.088 Y15.129 E.04787
G1 X8.518 Y14.278 E.04813
G1 X9.09 Y13.522 E.04785
G1 X9.613 Y13.058 E.03529
M204 S1000
G1 X9.613 Y13.058 F10800
G1 X10.012 Y13.512
M204 S800
G1 F1200
G1 X10.279 Y13.278 E.01792
G1 X11.071 Y12.826 E.04603
G1 X11.937 Y12.537 E.04608
G1 X12.898 Y12.422 E.04886
G1 X67.719 Y12.422 E2.7673
G1 X68.594 Y12.519 E.04444
G1 X69.458 Y12.787 E.04566
G1 X70.208 Y13.188 E.04293
G1 X70.913 Y13.759 E.0458
G1 X71.489 Y14.451 E.04545
G1 X71.923 Y15.247 E.04577
G1 X72.193 Y16.114 E.04584
G1 X72.289 Y16.963 E.04313
G1 X72.291 Y72.609 E2.80895
G1 X72.198 Y73.471 E.04377
G1 X71.959 Y74.274 E.04229
G1 X71.58 Y75.018 E.04215
G1 X71.072 Y75.684 E.04228
G1 X70.347 Y76.325 E.04885
G1 X69.55 Y76.781 E.04635
G1 X68.682 Y77.07 E.04618
G1 X67.721 Y77.186 E.04886
G1 X12.904 Y77.186 E2.7671
G1 X12.042 Y77.093 E.04377
G1 X11.239 Y76.854 E.04229
G1 X10.495 Y76.475 E.04215
G1 X9.829 Y75.967 E.04228
G1 X9.188 Y75.241 E.04889
G1 X8.732 Y74.445 E.04631
G1 X8.443 Y73.577 E.04618
G1 X8.327 Y72.615 E.04891
G1 X8.327 Y16.998 E2.80748
G1 X8.421 Y16.133 E.04392
G1 X8.661 Y15.331 E.04226
G1 X9.045 Y14.58 E.04258
G1 X9.553 Y13.916 E.0422
G1 X9.945 Y13.572 E.02633
M204 S1000
G1 X9.945 Y13.572 F10800
G1 X10.341 Y14.028
M204 S800
G1 F1200
G1 X10.652 Y13.757 E.02082
G1 X11.34 Y13.37 E.03985
G1 X12.095 Y13.124 E.04008
G1 X12.915 Y13.029 E.04167
G1 X67.703 Y13.029 E2.76564
G1 X68.446 Y13.108 E.03772
G1 X69.199 Y13.337 E.03973
G1 X69.895 Y13.709 E.03984
G1 X70.504 Y14.208 E.03974
G1 X71 Y14.812 E.03945
G1 X71.373 Y15.506 E.03977
G1 X71.604 Y16.262 E.0399
G1 X71.684 Y17.011 E.03802
G1 X71.684 Y72.594 E2.80577
G1 X71.608 Y73.325 E.0371
M73 P3 R41
M73 Q3 S41
G1 X71.385 Y74.072 E.03935
G1 X71.054 Y74.714 E.03646
G1 X70.611 Y75.289 E.03664
G1 X69.972 Y75.846 E.04279
G1 X69.28 Y76.237 E.04012
G1 X68.524 Y76.483 E.04013
G1 X67.704 Y76.579 E.04168
G1 X12.919 Y76.579 E2.76549
G1 X12.188 Y76.503 E.0371
G1 X11.441 Y76.28 E.03935
G1 X10.799 Y75.949 E.03646
G1 X10.225 Y75.505 E.03663
G1 X9.667 Y74.867 E.04279
G1 X9.276 Y74.174 E.04017
G1 X9.03 Y73.419 E.04008
G1 X8.934 Y72.599 E.04168
G1 X8.934 Y17.013 E2.80592
G1 X9.012 Y16.276 E.03741
M73 P3 R40
G1 X9.215 Y15.581 E.03655
G1 X9.572 Y14.882 E.03962
G1 X10.013 Y14.313 E.03634
G1 X10.273 Y14.087 E.01739
M204 S1000
G1 X10.273 Y14.087 F10800
G1 X10.668 Y14.541
M204 S800
G1 F1200
G1 X10.98 Y14.269 E.02089
G1 X11.563 Y13.936 E.03389
G1 X12.198 Y13.723 E.03381
G1 X12.933 Y13.636 E.03736
G1 X67.687 Y13.636 E2.76392
G1 X68.35 Y13.708 E.03366
G1 X68.989 Y13.907 E.03378
G1 X69.577 Y14.227 E.03379
G1 X70.093 Y14.656 E.03387
G1 X70.482 Y15.129 E.03091
G1 X70.804 Y15.718 E.03389
G1 X71.004 Y16.358 E.03385
G1 X71.077 Y17.028 E.03402
G1 X71.077 Y72.58 E2.8042
G1 X71.017 Y73.184 E.03064
G1 X70.831 Y73.824 E.03364
G1 X70.556 Y74.366 E.03068
G1 X70.148 Y74.894 E.03368
G1 X69.643 Y75.335 E.03384
G1 X69.057 Y75.671 E.0341
G1 X68.42 Y75.885 E.03392
G1 X67.685 Y75.972 E.03736
G1 X12.934 Y75.972 E2.76377
G1 X12.329 Y75.912 E.03069
G1 X11.689 Y75.725 E.03366
G1 X11.147 Y75.45 E.03068
G1 X10.619 Y75.043 E.03365
G1 X10.178 Y74.538 E.03384
G1 X9.842 Y73.951 E.03414
G1 X9.629 Y73.315 E.03386
G1 X9.542 Y72.58 E.03736
G1 X9.542 Y17.029 E2.80415
G1 X9.612 Y16.37 E.03345
G1 X9.787 Y15.784 E.03087
G1 X10.097 Y15.189 E.03387
G1 X10.472 Y14.711 E.03067
G1 X10.6 Y14.6 E.00855
M204 S1000
G1 X10.6 Y14.6 F10800
G1 X10.993 Y15.058
M204 S800
G1 F1200
G1 X11.351 Y14.751 E.02381
G1 X11.832 Y14.481 E.02784
G1 X12.355 Y14.31 E.02778
G1 X12.949 Y14.243 E.03017
G1 X67.672 Y14.243 E2.76236
G1 X68.205 Y14.298 E.02705
G1 X68.732 Y14.457 E.02779
G1 X69.218 Y14.717 E.02782
G1 X69.644 Y15.065 E.02777
G1 X69.993 Y15.491 E.0278
G1 X70.253 Y15.976 E.02778
G1 X70.414 Y16.505 E.02791
G1 X70.47 Y17.042 E.02725
G1 X70.47 Y72.564 E2.80269
G1 X70.416 Y73.093 E.02684
M73 P4 R40
M73 Q4 S41
G1 X70.258 Y73.621 E.02782
G1 X69.69 Y74.495 E.05262
G1 X69.273 Y74.854 E.02778
G1 X68.787 Y75.127 E.02814
G1 X68.263 Y75.297 E.02781
G1 X67.669 Y75.365 E.03018
G1 X12.949 Y75.365 E2.7622
G1 X12.421 Y75.311 E.02679
G1 X11.892 Y75.153 E.02787
G1 X11.019 Y74.585 E.05257
G1 X10.659 Y74.167 E.02785
G1 X10.386 Y73.682 E.02809
G1 X10.216 Y73.158 E.02781
G1 X10.149 Y72.564 E.03017
G1 X10.149 Y17.044 E2.80259
G1 X10.202 Y16.515 E.02684
G1 X10.36 Y15.988 E.02777
G1 X10.925 Y15.117 E.05241
M204 S1000
G1 X10.925 Y15.117 F10800
G1 X11.382 Y15.518
M204 S800
G1 F1200
G1 X12.095 Y15.029 E.04364
G1 X12.964 Y14.85 E.04479
G1 X67.658 Y14.85 E2.76089
G1 X68.48 Y15.011 E.04228
G1 X69.2 Y15.48 E.04338
G1 X69.685 Y16.19 E.0434
G1 X69.863 Y17.059 E.04478
G1 X69.863 Y72.551 E2.80117
G1 X69.705 Y73.37 E.0421
G1 X69.237 Y74.09 E.04335
G1 X68.524 Y74.579 E.04364
G1 X67.654 Y74.757 E.04483
G1 X12.962 Y74.757 E2.76079
G1 X12.143 Y74.599 E.0421
G1 X11.423 Y74.131 E.04335
G1 X10.934 Y73.418 E.04364
G1 X10.756 Y72.549 E.04478
G1 X10.756 Y17.057 E2.80117
G1 X10.914 Y16.238 E.0421
M73 Q4 S40
G1 X11.333 Y15.593 E.03883
M204 S1000
;WIPE_START
G1 F8640
G1 X11.382 Y15.518 E-.02069
G1 X12.095 Y15.029 E-.19963
G1 X12.964 Y14.85 E-.20487
G1 X15.453 Y14.85 E-.57481
;WIPE_END
G1 Z.4 F720
; printing object Case_bottom id:0 copy 0
G1 X48.922 Y68.961 F10800
G1 Z.2 F720
G1 E1 F1500
M204 S800
;TYPE:External perimeter
;WIDTH:0.55292
G1 F1200
G1 X48.858 Y68.961 E.00271
G1 X48.826 Y69.016 E.0027
G1 X48.858 Y69.071 E.0027
G1 X48.922 Y69.071 E.00271
G1 X48.954 Y69.016 E.0027
M204 S1000
;WIPE_START
G1 F8640
G1 X48.922 Y69.071 E-.01469
G1 X48.858 Y69.071 E-.01478
G1 X48.826 Y69.016 E-.01469
G1 X48.858 Y68.961 E-.01469
G1 X48.922 Y68.961 E-.01478
;WIPE_END
G1 E-.92637 F2100
G1 Z.4 F720
G1 X50.123 Y69.026 F10800
G1 Z.2 F720
G1 E1 F1500
M204 S800
G1 F1200
G1 X50.293 Y69.025 E.00721
M204 S1000
;WIPE_START
G1 F8640
G1 X50.123 Y69.026 E-.03925
;WIPE_END
G1 E-.96075 F2100
G1 Z.4 F720
G1 X49.733 Y64.651 F10800
G1 Z.2 F720
G1 E1 F1500
M204 S800
G1 F1200
G1 X49.669 Y64.651 E.00271
G1 X49.638 Y64.706 E.00268
G1 X49.669 Y64.761 E.00268
G1 X49.733 Y64.761 E.00271
G1 X49.765 Y64.706 E.0027
M204 S1000
;WIPE_START
G1 F8640
G1 X49.733 Y64.761 E-.01469
G1 X49.669 Y64.761 E-.01478
G1 X49.638 Y64.706 E-.01458
G1 X49.669 Y64.651 E-.01458
G1 X49.733 Y64.651 E-.01478
;WIPE_END
G1 E-.92659 F2100
G1 Z.4 F720
G1 X42.977 Y61.861 F10800
G1 Z.2 F720
G1 E1 F1500
M204 S800
G1 F1200
G1 X42.913 Y61.861 E.00271
G1 X42.881 Y61.916 E.0027
G1 X42.913 Y61.971 E.0027
G1 X42.977 Y61.971 E.00271
G1 X43.008 Y61.916 E.00268
M204 S1000
;WIPE_START
G1 F8640
G1 X42.977 Y61.971 E-.01458
G1 X42.913 Y61.971 E-.01478
G1 X42.881 Y61.916 E-.01469
G1 X42.913 Y61.861 E-.01469
G1 X42.977 Y61.861 E-.01478
;WIPE_END
G1 E-.92648 F2100
G1 Z.4 F720
G1 X21.76 Y26.198 F10800
G1 Z.2 F720
G1 E1 F1500
M204 S800
G1 F1200
G1 X21.696 Y26.198 E.00271
G1 X21.664 Y26.253 E.0027
G1 X21.696 Y26.308 E.0027
G1 X21.76 Y26.308 E.00271
G1 X21.792 Y26.253 E.0027
M204 S1000
;WIPE_START
G1 F8640
G1 X21.76 Y26.308 E-.01469
G1 X21.696 Y26.308 E-.01478
G1 X21.664 Y26.253 E-.01469
G1 X21.696 Y26.198 E-.01469
G1 X21.76 Y26.198 E-.01478
;WIPE_END
G1 E-.92637 F2100
G1 Z.4 F720
G1 X34.519 Y67.235 F10800
G1 Z.2 F720
G1 E1 F1500
M204 S800
;WIDTH:0.609202
G1 F1200
G1 X34.74 Y67.201 E.01053
;WIDTH:0.61564
G1 X34.233 Y67.218 E.02416
;WIDTH:0.649999
G1 X33.197 Y67.235 E.0523
G1 X32.996 Y67.159 E.01085
;WIDTH:0.658479
G1 X32.891 Y66.968 E.01116
;WIDTH:0.677212
G1 X32.834 Y66.517 E.02398
;WIDTH:0.685941
G1 X32.875 Y65.752 E.04096
;WIDTH:0.711582
G1 X32.891 Y65.665 E.00492
;WIDTH:0.737223
G1 X32.907 Y65.579 E.00505
G1 X33.196 Y65.353 E.02118
G1 X33.003 Y65.294 E.01165
G1 X32.909 Y65.197 E.0078
G1 X32.766 Y64.676 E.03119
;WIDTH:0.774534
G1 X32.738 Y64.603 E.00476
;WIDTH:0.820403
G1 X32.71 Y64.531 E.00499
;WIDTH:0.866272
G1 X32.682 Y64.459 E.00529
G1 X32.704 Y64.345 E.00795
;WIDTH:0.824545
G1 X32.726 Y64.231 E.00755
;WIDTH:0.782818
G1 X32.747 Y64.118 E.00707
;WIDTH:0.741091
G1 X32.769 Y64.004 E.00674
;WIDTH:0.699364
G1 X32.79 Y63.89 E.00633
;WIDTH:0.657636
G1 X32.824 Y63.307 E.02985
;WIDTH:0.649999
G1 X33.022 Y63.032 E.01711
G1 X34.059 Y62.895 E.0528
G1 X36.964 Y62.886 E.14664
G1 X37.119 Y62.928 E.00811
G1 X37.243 Y63.068 E.00944
G1 X37.261 Y63.595 E.02662
G1 X37.199 Y64.252 E.03331
G1 X37.029 Y64.76 E.02704
G1 X36.738 Y65.01 E.01937
G1 X36.922 Y65.073 E.00982
G1 X37.039 Y65.278 E.01191
G1 X37.041 Y65.691 E.02085
G1 X37.136 Y66.111 E.02174
G1 X37.137 Y66.599 E.02463
G1 X36.978 Y67.11 E.02701
G1 X36.905 Y67.182 E.00518
G1 X36.733 Y67.235 E.00909
G1 X36.012 Y67.235 E.0364
;WIDTH:0.648038
G1 X35.577 Y67.245 E.02189
G1 X35.964 Y67.398 E.02094
;WIDTH:0.649999
G1 X36.288 Y67.61 E.01955
G1 X36.848 Y68.109 E.03786
G1 X37.073 Y68.433 E.01991
G1 X37.225 Y68.817 E.02085
G1 X37.277 Y69.417 E.0304
G1 X37.201 Y69.913 E.02533
G1 X37.033 Y70.34 E.02316
G1 X36.792 Y70.711 E.02233
G1 X36.46 Y71.052 E.02402
G1 X36.066 Y71.322 E.02411
G1 X35.645 Y71.495 E.02298
G1 X35.18 Y71.582 E.02388
G1 X34.7 Y71.577 E.02423
G1 X34.242 Y71.483 E.0236
G1 X33.807 Y71.288 E.02406
G1 X33.343 Y70.926 E.02971
G1 X33.038 Y70.523 E.02551
;WIDTH:0.663738
G1 X32.88 Y70.094 E.0236
;WIDTH:0.671395
G1 X32.826 Y69.824 E.01439
G1 X32.829 Y68.861 E.05032
;WIDTH:0.664191
G1 X32.847 Y68.687 E.00904
;WIDTH:0.661059
G1 X33.009 Y68.265 E.02323
;WIDTH:0.649999
G1 X33.158 Y68.067 E.01251
G1 X33.719 Y67.552 E.03844
G1 X34.269 Y67.273 E.03113
;WIDTH:0.637124
G1 X34.43 Y67.249 E.00804
M204 S1000
;WIPE_START
G1 F8640
G1 X34.519 Y67.235 E-.0208
G1 X34.74 Y67.201 E-.05163
G1 X34.233 Y67.218 E-.11713
G1 X33.197 Y67.235 E-.23925
G1 X32.996 Y67.159 E-.04962
G1 X32.891 Y66.968 E-.05033
G1 X32.834 Y66.517 E-.10497
G1 X32.875 Y65.752 E-.17689
G1 X32.891 Y65.665 E-.02043
G1 X32.907 Y65.579 E-.0202
G1 X33.196 Y65.353 E-.08471
G1 X33.003 Y65.294 E-.0466
G1 X32.95 Y65.24 E-.01744
;WIPE_END
G1 Z.4 F720
G1 X42.657 Y59.839 F10800
G1 Z.2 F720
G1 E1 F1500
M204 S800
;WIDTH:0.706636
G1 F1200
G1 X42.813 Y59.792 E.00899
M204 S1000
;WIPE_START
G1 F8640
G1 X42.657 Y59.839 E-.03762
;WIPE_END
G1 E-.96238 F2100
G1 Z.4 F720
G1 X49.573 Y62.584 F10800
G1 Z.2 F720
