; generated by PrusaSlicer 2.8.0+win64 on 2024-08-21 at 12:40:51 UTC


;
;
; 

; external perimeters extrusion width = 0.65mm
; perimeters extrusion width = 0.65mm
; infill extrusion width = 0.65mm
; solid infill extrusion width = 0.65mm
; top infill extrusion width = 0.60mm
; first layer extrusion width = 0.65mm

M73 P0 R30
M73 Q0 S31
M201 X1000 Y1000 Z200 E5000 ; sets maximum accelerations, mm/sec^2
M203 X200 Y200 Z12 E120 ; sets maximum feedrates, mm / sec
M204 S1250 T1250 ; sets acceleration (S) and retract acceleration (R), mm/sec^2
M205 X8.00 Y8.00 Z0.40 E4.50 ; sets the jerk limits, mm/sec
M205 S0 T0 ; sets the minimum extruding and travel feed rate, mm/sec

; printing object Case_top id:0 copy 0
; stop printing object Case_top id:0 copy 0

;TYPE:Custom
M862.3 P "MK3S" ; printer model check
M862.1 P0.6 ; nozzle diameter check
M115 U3.14.0 ; tell printer latest fw version
G90 ; use absolute coordinates
M83 ; extruder relative mode
M104 S215 ; set extruder temp
M140 S60 ; set bed temp
M190 S60 ; wait for bed temp
M109 S215 ; wait for extruder temp
G28 W ; home all without mesh bed level
G80 X88.4504 Y67.5199 W74.1142 H74.9142 ; mesh bed levelling

G1 Z0.2 F720
G1 Y-3 F1000 ; go outside print area
G92 E0
G1 X60 E9 F1000 ; intro line
G1 X100 E12.5 F1000 ; intro line

G92 E0
M221 S95
G21 ; set units to millimeters
G90 ; use absolute coordinates
M83 ; use relative distances for extrusion

M900 K0.04 ; Filament gcode LA 1.5
M900 K18 ; Filament gcode LA 1.0




M107
;LAYER_CHANGE
;Z:0.2
;HEIGHT:0.2
G1 E-.8 F2100
G1 Z.6 F720
G1 X90.958 Y71.176 F10800
G1 Z.2 F720
G1 E.8 F1500
M204 S800
;TYPE:Skirt/Brim
;WIDTH:0.65
G1 F1200
G1 X92.277 Y69.888 E.09306
G1 X93.822 Y68.882 E.09307
G1 X95.537 Y68.195 E.09326
G1 X96.442 Y67.98 E.04695
G1 X97.473 Y67.848 E.05247
G1 X152.977 Y67.824 E2.80178
G1 X154.8 Y68.026 E.09259
G1 X156.326 Y68.486 E.08045
G1 X157.965 Y69.33 E.09306
G1 X159.325 Y70.401 E.08738
G1 X160.533 Y71.794 E.09307
G1 X161.26 Y73.004 E.07126
G1 X161.888 Y74.602 E.08667
G1 X162.203 Y76.174 E.08093
G1 X162.261 Y77.162 E.04996
G1 X162.257 Y132.971 E2.81718
G1 X162.056 Y134.684 E.08706
G1 X161.634 Y136.104 E.07478
G1 X161.036 Y137.368 E.07059
G1 X160.047 Y138.789 E.08739
G1 X159.418 Y139.465 E.04661
G1 X158.637 Y140.145 E.05227
G1 X157.882 Y140.676 E.04659
G1 X156.675 Y141.321 E.06908
G1 X155.707 Y141.689 E.05228
G1 X154.815 Y141.925 E.04658
G1 X152.977 Y142.13 E.09336
G1 X97.913 Y142.127 E2.77957
G1 X96.2 Y141.925 E.08707
G1 X94.78 Y141.503 E.07478
G1 X93.516 Y140.905 E.07059
G1 X92.095 Y139.917 E.08736
G1 X91.42 Y139.288 E.04657
G1 X90.74 Y138.507 E.05227
G1 X90.209 Y137.752 E.04659
G1 X89.564 Y136.545 E.06908
G1 X89.195 Y135.576 E.05234
G1 X88.959 Y134.684 E.04658
G1 X88.755 Y132.846 E.09335
G1 X88.758 Y76.983 E2.8199
G1 X88.956 Y75.285 E.08629
M73 P1 R30
M73 Q1 S31
G1 X89.376 Y73.864 E.0748
G1 X89.972 Y72.599 E.07059
G1 X90.907 Y71.25 E.08285
M204 S1000
;WIPE_START
G1 F8640
G1 X90.958 Y71.176 E-.02075
G1 X92.277 Y69.888 E-.42568
G1 X93.56 Y69.052 E-.35357
;WIPE_END
G1 Z.6 F720
G1 X93.101 Y72.925 F10800
G1 Z.2 F720
G1 E.8 F1500
M204 S800
G1 F1200
G1 X93.225 Y72.762 E.01034
G1 X94.179 Y71.897 E.065
G1 X95.28 Y71.228 E.06503
G1 X96.713 Y70.731 E.07656
G1 X98.043 Y70.574 E.0676
G1 X153.005 Y70.575 E2.77442
G1 X154.253 Y70.723 E.06344
G1 X155.483 Y71.114 E.06515
G1 X156.565 Y71.703 E.06219
G1 X157.525 Y72.486 E.06253
G1 X158.356 Y73.483 E.06552
G1 X158.949 Y74.553 E.06175
G1 X159.336 Y75.715 E.06182
G1 X159.502 Y76.965 E.06365
G1 X159.511 Y132.838 E2.82041
G1 X159.382 Y134.024 E.06022
M73 Q1 S30
G1 X159.043 Y135.176 E.06062
G1 X158.502 Y136.248 E.06061
G1 X157.806 Y137.173 E.05843
G1 X156.799 Y138.086 E.06861
G1 X155.604 Y138.786 E.06991
G1 X154.348 Y139.21 E.06692
G1 X152.978 Y139.38 E.06969
G1 X98.047 Y139.38 E2.77286
G1 X96.864 Y139.252 E.06007
G1 X95.704 Y138.911 E.06103
G1 X94.669 Y138.391 E.05847
G1 X93.699 Y137.665 E.06116
G1 X92.788 Y136.653 E.06873
G1 X92.095 Y135.466 E.06938
G1 X91.675 Y134.221 E.06633
G1 X91.504 Y132.848 E.06984
G1 X91.504 Y77.125 E2.81283
G1 X91.613 Y76.039 E.0551
G1 X91.884 Y75.013 E.05357
G1 X92.539 Y73.662 E.07579
G1 X93.046 Y72.996 E.04225
M204 S1000
G1 X93.046 Y72.996 F10800
G1 X93.527 Y73.365
M204 S800
G1 F1200
G1 X93.69 Y73.153 E.0135
G1 X94.521 Y72.4 E.05661
G1 X95.533 Y71.78 E.05991
G1 X96.856 Y71.321 E.07069
G1 X98.06 Y71.181 E.06119
G1 X152.988 Y71.182 E2.7727
G1 X154.1 Y71.311 E.05651
M73 P2 R30
M73 Q2 S30
G1 X155.222 Y71.663 E.05936
G1 X156.204 Y72.192 E.05631
G1 X157.117 Y72.938 E.05952
G1 X157.869 Y73.846 E.05951
G1 X158.403 Y74.82 E.05607
G1 X158.75 Y75.876 E.05611
G1 X158.897 Y77.023 E.05837
G1 X158.904 Y132.822 E2.81667
G1 X158.792 Y133.881 E.05376
G1 X158.487 Y134.931 E.05519
G1 X158 Y135.906 E.05501
G1 X157.339 Y136.785 E.05552
G1 X156.417 Y137.613 E.06255
G1 X155.328 Y138.244 E.06353
G1 X154.186 Y138.624 E.06075
G1 X152.96 Y138.773 E.06234
G1 X98.064 Y138.773 E2.77109
G1 X96.958 Y138.652 E.05616
G1 X95.905 Y138.337 E.05548
G1 X94.968 Y137.862 E.05303
G1 X94.089 Y137.199 E.05558
G1 X93.261 Y136.272 E.06274
G1 X92.659 Y135.24 E.06031
G1 X92.273 Y134.113 E.06013
G1 X92.111 Y132.829 E.06533
G1 X92.111 Y77.14 E2.81112
G1 X92.206 Y76.168 E.0493
G1 X92.453 Y75.226 E.04916
G1 X93.058 Y73.976 E.0701
G1 X93.472 Y73.437 E.03431
M204 S1000
G1 X93.472 Y73.437 F10800
G1 X93.952 Y73.807
M204 S800
G1 F1200
G1 X94.153 Y73.547 E.01659
G1 X94.905 Y72.87 E.05108
G1 X95.786 Y72.333 E.05208
G1 X96.998 Y71.912 E.06477
G1 X98.077 Y71.788 E.05483
G1 X152.97 Y71.789 E2.77094
G1 X153.999 Y71.91 E.0523
G1 X155.008 Y72.232 E.05346
G1 X155.887 Y72.711 E.05053
G1 X156.708 Y73.386 E.05365
G1 X157.38 Y74.208 E.05359
G1 X157.856 Y75.083 E.05028
G1 X158.163 Y76.034 E.05044
G1 X158.292 Y77.078 E.0531
G1 X158.296 Y132.806 E2.81309
G1 X158.191 Y133.788 E.04985
G1 X157.913 Y134.731 E.04963
G1 X157.471 Y135.607 E.04953
G1 X156.873 Y136.394 E.04989
G1 X156.083 Y137.105 E.05365
G1 X155.102 Y137.68 E.0574
G1 X154.08 Y138.026 E.05447
G1 X152.941 Y138.166 E.05793
G1 X98.079 Y138.166 E2.76937
G1 X97.102 Y138.062 E.0496
M73 P3 R30
M73 Q3 S30
G1 X96.154 Y137.783 E.04988
G1 X95.268 Y137.333 E.05016
G1 X94.481 Y136.735 E.04989
G1 X93.737 Y135.894 E.05668
G1 X93.201 Y134.964 E.05418
G1 X92.859 Y133.95 E.05402
G1 X92.719 Y132.81 E.05798
G1 X92.719 Y77.155 E2.8094
G1 X92.808 Y76.252 E.0458
M73 P3 R29
G1 X93.021 Y75.441 E.04233
G1 X93.577 Y74.292 E.06443
G1 X93.897 Y73.878 E.02641
M204 S1000
G1 X93.897 Y73.878 F10800
G1 X94.375 Y74.25
M204 S800
G1 F1200
G1 X94.614 Y73.943 E.01964
G1 X95.288 Y73.343 E.04555
G1 X96.04 Y72.885 E.04445
G1 X97.139 Y72.503 E.05873
G1 X98.094 Y72.395 E.04851
G1 X152.953 Y72.397 E2.76922
G1 X153.846 Y72.498 E.04537
G1 X154.747 Y72.781 E.04767
G1 X155.527 Y73.201 E.04472
G1 X156.26 Y73.797 E.04769
G1 X156.863 Y74.526 E.04776
G1 X157.287 Y75.298 E.04446
G1 X157.576 Y76.192 E.04743
G1 X157.687 Y77.131 E.04773
G1 X157.689 Y132.789 E2.80955
G1 X157.591 Y133.694 E.04595
G1 X157.34 Y134.529 E.04401
G1 X156.944 Y135.305 E.04398
G1 X156.41 Y136.001 E.04428
G1 X155.704 Y136.631 E.04776
G1 X154.827 Y137.138 E.05114
G1 X153.919 Y137.44 E.0483
G1 X152.923 Y137.559 E.05063
G1 X98.096 Y137.559 E2.76761
G1 X97.196 Y137.461 E.0457
G1 X96.356 Y137.21 E.04425
G1 X95.57 Y136.807 E.04459
G1 X94.876 Y136.273 E.0442
G1 X94.215 Y135.518 E.05065
G1 X93.744 Y134.691 E.04804
G1 X93.445 Y133.789 E.04797
G1 X93.326 Y132.793 E.05063
G1 X93.326 Y77.169 E2.80784
G1 X93.402 Y76.381 E.03996
G1 X93.59 Y75.653 E.03795
G1 X94.096 Y74.608 E.05861
G1 X94.319 Y74.321 E.01835
M204 S1000
G1 X94.319 Y74.321 F10800
G1 X94.795 Y74.695
M204 S800
G1 F1200
G1 X95.074 Y74.34 E.02279
G1 X95.668 Y73.816 E.03998
G1 X96.294 Y73.437 E.03694
G1 X97.279 Y73.094 E.05265
G1 X98.111 Y73.002 E.04225
G1 X152.935 Y73.004 E2.76745
G1 X153.746 Y73.098 E.04121
M73 P4 R29
M73 Q4 S30
G1 X154.533 Y73.35 E.04171
G1 X155.21 Y73.719 E.03892
G1 X155.85 Y74.246 E.04185
G1 X156.374 Y74.887 E.04179
G1 X156.739 Y75.561 E.03869
G1 X156.988 Y76.346 E.04157
G1 X157.082 Y77.181 E.04242
G1 X157.082 Y132.772 E2.80617
G1 X156.991 Y133.597 E.0419
G1 X156.768 Y134.323 E.03834
G1 X156.418 Y135 E.03847
G1 X155.949 Y135.606 E.03868
G1 X155.327 Y136.154 E.04185
G1 X154.554 Y136.595 E.04492
G1 X153.762 Y136.853 E.04205
G1 X152.907 Y136.952 E.04345
G1 X98.111 Y136.952 E2.76604
G1 X97.339 Y136.871 E.03918
G1 X96.607 Y136.656 E.03851
G1 X95.874 Y136.28 E.04159
G1 X95.273 Y135.813 E.03842
G1 X94.695 Y135.146 E.04455
G1 X94.289 Y134.422 E.0419
G1 X94.032 Y133.631 E.04198
G1 X93.933 Y132.776 E.04345
G1 X93.933 Y77.183 E2.80627
G1 X93.996 Y76.506 E.03432
G1 X94.16 Y75.865 E.0334
G1 X94.613 Y74.927 E.05258
G1 X94.74 Y74.766 E.01035
M73 Q4 S29
M204 S1000
G1 X94.74 Y74.766 F10800
G1 X95.214 Y75.141
M204 S800
G1 F1200
G1 X95.531 Y74.74 E.0258
G1 X96.046 Y74.292 E.03446
G1 X96.547 Y73.989 E.02956
G1 X97.415 Y73.686 E.04641
G1 X98.126 Y73.609 E.0361
G1 X152.919 Y73.611 E2.76589
G1 X153.594 Y73.686 E.03428
G1 X154.27 Y73.897 E.03575
G1 X154.892 Y74.237 E.03578
G1 X155.436 Y74.691 E.03577
G1 X155.882 Y75.244 E.03586
G1 X156.189 Y75.819 E.0329
G1 X156.399 Y76.496 E.03578
G1 X156.475 Y77.197 E.03559
G1 X156.475 Y132.757 E2.80461
G1 X156.401 Y133.451 E.03523
G1 X156.214 Y134.074 E.03283
G1 X155.92 Y134.651 E.03269
G1 X155.487 Y135.21 E.03569
G1 X154.953 Y135.674 E.03571
G1 X154.286 Y136.05 E.03865
G1 X153.608 Y136.265 E.0359
G1 X152.89 Y136.345 E.03647
G1 X98.128 Y136.345 E2.76432
G1 X97.433 Y136.27 E.03529
M73 P5 R29
M73 Q5 S29
G1 X96.811 Y136.084 E.03277
G1 X96.181 Y135.756 E.03585
G1 X95.674 Y135.356 E.0326
G1 X95.177 Y134.776 E.03856
G1 X94.835 Y134.156 E.03574
G1 X94.62 Y133.478 E.0359
G1 X94.54 Y132.76 E.03647
G1 X94.54 Y77.196 E2.80481
G1 X94.729 Y76.075 E.05739
G1 X95.129 Y75.248 E.04637
G1 X95.158 Y75.211 E.00237
M204 S1000
G1 X95.158 Y75.211 F10800
G1 X95.643 Y75.572
M204 S800
G1 F1200
G1 X95.986 Y75.143 E.02773
G1 X96.8 Y74.541 E.05111
G1 X97.549 Y74.279 E.04006
G1 X98.142 Y74.216 E.0301
G1 X152.904 Y74.218 E2.76432
G1 X153.447 Y74.276 E.02757
G1 X154.012 Y74.448 E.02981
G1 X154.532 Y74.726 E.02976
G1 X154.987 Y75.101 E.02976
G1 X155.361 Y75.557 E.02977
G1 X155.639 Y76.078 E.02981
G1 X155.81 Y76.642 E.02975
G1 X155.868 Y77.212 E.02892
G1 X155.868 Y132.742 E2.80309
G1 X155.811 Y133.305 E.02856
G1 X155.641 Y133.871 E.02983
G1 X155.395 Y134.344 E.02691
G1 X155.03 Y134.809 E.02984
G1 X154.582 Y135.193 E.02979
G1 X154.068 Y135.482 E.02977
G1 X153.507 Y135.665 E.02979
G1 X152.873 Y135.738 E.03222
G1 X98.142 Y135.738 E2.76276
G1 X97.579 Y135.68 E.02857
G1 X97.015 Y135.511 E.02972
G1 X96.492 Y135.234 E.02987
G1 X96.076 Y134.901 E.0269
G1 X95.691 Y134.452 E.02986
G1 X95.402 Y133.937 E.02981
G1 X95.219 Y133.377 E.02974
G1 X95.147 Y132.742 E.03226
G1 X95.147 Y77.21 E2.80319
G1 X95.299 Y76.287 E.04722
G1 X95.604 Y75.653 E.03551
M204 S1000
G1 X95.604 Y75.653 F10800
G1 X96.148 Y75.913
M204 S800
G1 F1200
G1 X96.154 Y75.9 E.00072
G1 X96.438 Y75.549 E.02279
G1 X97.054 Y75.093 E.03869
G1 X97.679 Y74.872 E.03346
G1 X98.157 Y74.823 E.02426
G1 X152.887 Y74.825 E2.76271
G1 X153.799 Y75.017 E.04705
M73 P6 R29
G1 X154.573 Y75.545 E.0473
G1 X155.086 Y76.33 E.04734
G1 X155.261 Y77.225 E.04603
G1 X155.261 Y132.729 E2.80178
G1 X155.088 Y133.619 E.04577
M73 Q6 S29
G1 X154.577 Y134.405 E.04732
G1 X153.804 Y134.935 E.04731
G1 X152.857 Y135.13 E.04881
G1 X98.156 Y135.13 E2.76124
G1 X97.265 Y134.957 E.04582
G1 X96.48 Y134.446 E.04728
G1 X95.949 Y133.673 E.04734
G1 X95.754 Y132.727 E.04876
G1 X95.754 Y77.225 E2.80168
G1 X95.868 Y76.499 E.0371
M73 P6 R28
G1 X96.109 Y75.994 E.02825
M204 S1000
;WIPE_START
G1 F8640
G1 X96.148 Y75.913 E-.02076
G1 X96.154 Y75.9 E-.00331
G1 X96.438 Y75.549 E-.10425
G1 X97.054 Y75.093 E-.17697
G1 X97.679 Y74.872 E-.15307
G1 X98.157 Y74.823 E-.11095
G1 X99.156 Y74.823 E-.23069
;WIPE_END
G1 Z.6 F720
; printing object Case_top id:0 copy 0
G1 X130.83 Y119.794 F10800
G1 Z.2 F720
G1 E.8 F1500
M204 S800
;TYPE:External perimeter
;WIDTH:0.612882
G1 F1200
G1 X132.52 Y121.465 E.11263
M204 S1000
;WIPE_START
G1 F8640
G1 X130.83 Y119.794 E-.54877
;WIPE_END
G1 E-.25123 F2100
G1 Z.6 F720
G1 X131.305 Y123.744 F10800
G1 Z.2 F720
G1 E.8 F1500
M204 S800
;WIDTH:0.608632
G1 F1200
G1 X129.608 Y122.072 E.11206
M204 S1000
G1 X129.608 Y122.072 F10800
G1 X129.871 Y121.473
M204 S800
;WIDTH:0.678088
G1 F1200
G1 X132.196 Y122.055 E.12658
;WIDTH:0.673358
G1 X132.25 Y122.066 E.00289
M204 S1000
M204 S800
G1 X132.331 Y122.004 E.00535
;WIDTH:0.632899
G1 X132.412 Y121.942 E.005
;WIDTH:0.59244
G1 X132.493 Y121.88 E.00466
;WIDTH:0.554431
G1 X132.549 Y121.786 E.00465
;WIDTH:0.586484
G1 X132.52 Y121.465 E.01457
G1 X133.088 Y122.005 E.03542
;WIDTH:0.546142
G1 X132.916 Y122.177 E.01018
G1 X132.819 Y122.275 E.00577
;WIDTH:0.588548
G1 X132.629 Y122.205 E.00919
;WIDTH:0.630953
G1 X132.44 Y122.136 E.00984
;WIDTH:0.673358
G1 X132.334 Y122.097 E.00592
M204 S1000
;WIPE_START
G1 F8640
G1 X132.25 Y122.066 E-.02067
G1 X132.331 Y122.004 E-.02355
G1 X132.412 Y121.942 E-.02355
G1 X132.493 Y121.88 E-.02355
G1 X132.549 Y121.786 E-.02526
G1 X132.52 Y121.465 E-.07442
G1 X133.088 Y122.005 E-.18096
G1 X132.916 Y122.177 E-.05617
G1 X132.819 Y122.275 E-.03184
G1 X132.629 Y122.205 E-.04675
G1 X132.44 Y122.136 E-.04646
G1 X132.334 Y122.097 E-.02608
;WIPE_END
G1 E-.22074 F2100
G1 Z.6 F720
G1 X129.608 Y122.072 F10800
G1 Z.2 F720
G1 E.8 F1500
M204 S800
;WIDTH:0.57346
G1 F1200
G1 X129.046 Y121.533 E.03435
;WIDTH:0.540971
G1 X129.319 Y121.271 E.01567
;WIDTH:0.586672
G1 X129.503 Y121.338 E.00885
;WIDTH:0.632373
G1 X129.687 Y121.405 E.0096
;WIDTH:0.678074
G1 X129.871 Y121.473 E.01036
G1 X129.792 Y121.536 E.00534
;WIDTH:0.634321
G1 X129.714 Y121.598 E.0049
;WIDTH:0.590567
G1 X129.635 Y121.661 E.0046
;WIDTH:0.547881
G1 X129.579 Y121.756 E.00463
;WIDTH:0.57346
G1 X129.6 Y121.982 E.01001
M204 S1000
;WIPE_START
G1 F8640
G1 X129.608 Y122.072 E-.02086
G1 X129.046 Y121.533 E-.1798
G1 X129.319 Y121.271 E-.08737
G1 X129.503 Y121.338 E-.04522
G1 X129.687 Y121.405 E-.04522
G1 X129.871 Y121.473 E-.04529
G1 X129.792 Y121.536 E-.02333
G1 X129.714 Y121.598 E-.02301
G1 X129.635 Y121.661 E-.02333
G1 X129.579 Y121.756 E-.02546
G1 X129.6 Y121.982 E-.05241
;WIPE_END
G1 E-.2287 F2100
G1 Z.6 F720
G1 X116.475 Y116.325 F10800
G1 Z.2 F720
G1 E.8 F1500
M204 S800
;WIDTH:0.63693
G1 F1200
G1 X117.356 Y117.209 E.06164
;WIDTH:0.67654
G1 X117.421 Y117.306 E.00615
;WIDTH:0.721384
G1 X117.486 Y117.404 E.00663
G1 X117.583 Y117.469 E.00659
;WIDTH:0.67557
G1 X117.681 Y117.535 E.00622
;WIDTH:0.629756
G1 X118.665 Y118.524 E.06808
M204 S1000
;WIPE_START
G1 F8640
G1 X117.681 Y117.535 E-.32214
G1 X117.583 Y117.469 E-.02728
G1 X117.486 Y117.404 E-.02696
G1 X117.421 Y117.306 E-.02715
G1 X117.356 Y117.209 E-.02696
G1 X116.475 Y116.325 E-.28818
;WIPE_END
G1 E-.08133 F2100
G1 Z.6 F720
G1 X116.973 Y120.215 F10800
G1 Z.2 F720
G1 E.8 F1500
M204 S800
;WIDTH:0.637812
G1 F1200
G1 X115.987 Y119.229 E.06898
;WIDTH:0.6826
G1 X115.921 Y119.132 E.00624
;WIDTH:0.72739
G1 X115.855 Y119.034 E.00672
M204 S1000
;WIPE_START
G1 F8640
G1 X115.921 Y119.132 E-.02728
G1 X115.987 Y119.229 E-.02709
G1 X116.973 Y120.215 E-.32197
;WIPE_END
G1 E-.42366 F2100
G1 Z.6 F720
G1 X114.779 Y118.021 F10800
G1 Z.2 F720
G1 E.8 F1500
M204 S800
;WIDTH:0.63781
G1 F1200
G1 X115.66 Y118.903 E.06166
;WIDTH:0.6826
G1 X115.758 Y118.968 E.00625
;WIDTH:0.72739
G1 X115.855 Y119.034 E.00668
G1 X117.486 Y117.404 E.13124
M204 S1000
;WIPE_START
G1 F8640
G1 X115.855 Y119.034 E-.53243
G1 X115.758 Y118.968 E-.02709
G1 X115.66 Y118.903 E-.02715
G1 X115.007 Y118.25 E-.21333
;WIPE_END
G1 Z.6 F720
G1 X113.77 Y118.937 F10800
G1 Z.2 F720
G1 E.8 F1500
M204 S800
;WIDTH:0.55292
G1 F1200
G1 X112.859 Y119.847 E.0546
;WIDTH:0.593205
G1 X112.813 Y119.933 E.00446
;WIDTH:0.63349
G1 X112.767 Y120.019 E.00479
;WIDTH:0.673774
G1 X112.722 Y120.105 E.00509
G1 X112.812 Y120.221 E.0077
;WIDTH:0.63781
G1 X113.577 Y120.986 E.05352
;WIDTH:0.6826
G1 X113.675 Y121.052 E.00628
;WIDTH:0.72739
G1 X113.772 Y121.117 E.00665
M204 S1000
;WIPE_START
G1 F8640
G1 X113.675 Y121.052 E-.02696
G1 X113.577 Y120.986 E-.02728
G1 X112.812 Y120.221 E-.24981
G1 X112.722 Y120.105 E-.0339
