; generated by PrusaSlicer 2.8.0+win64 on 2024-08-21 at 12:39:35 UTC


;
;
; 

; external perimeters extrusion width = 0.65mm
; perimeters extrusion width = 0.65mm
; infill extrusion width = 0.65mm
; solid infill extrusion width = 0.65mm
; top infill extrusion width = 0.60mm
; first layer extrusion width = 0.65mm

M73 P0 R42
M73 Q0 S43
M201 X1000 Y1000 Z200 E5000 ; sets maximum accelerations, mm/sec^2
M203 X200 Y200 Z12 E120 ; sets maximum feedrates, mm / sec
M204 S1250 T1250 ; sets acceleration (S) and retract acceleration (R), mm/sec^2
M205 X8.00 Y8.00 Z0.40 E4.50 ; sets the jerk limits, mm/sec
M205 S0 T0 ; sets the minimum extruding and travel feed rate, mm/sec

; printing object Case_bottom id:0 copy 0
; stop printing object Case_bottom id:0 copy 0

;TYPE:Custom
M862.3 P "MK3S" ; printer model check
M862.1 P0.6 ; nozzle diameter check
M115 U3.14.0 ; tell printer latest fw version
G90 ; use absolute coordinates
M83 ; extruder relative mode
M104 S230 ; set extruder temp
M140 S85 ; set bed temp
M190 S85 ; wait for bed temp
M109 S230 ; wait for extruder temp
G28 W ; home all without mesh bed level
G80 X88.1429 Y67.7429 W73.7142 H74.5142 ; mesh bed levelling

G1 Z0.2 F720
G1 Y-3 F1000 ; go outside print area
G92 E0
G1 X60 E9 F1000 ; intro line
G1 X100 E12.5 F1000 ; intro line

G92 E0
M221 S95
G21 ; set units to millimeters
G90 ; use absolute coordinates
M83 ; use relative distances for extrusion

M900 K0.04 ; Filament gcode LA 1.5
M900 K24 ; Filament gcode LA 1.0




M107
;LAYER_CHANGE
;Z:0.2
;HEIGHT:0.2
G1 E-1 F2100
G1 Z.4 F720
G1 X90.615 Y71.315 F10800
G1 Z.2 F720
M73 Q0 S42
G1 E1 F1500
M204 S800
;TYPE:Skirt/Brim
;WIDTH:0.65
G1 F1200
G1 X91.908 Y70.056 E.0911
G1 X93.422 Y69.074 E.09109
G1 X95.098 Y68.407 E.09106
G1 X95.977 Y68.199 E.0456
G1 X96.985 Y68.07 E.0513
G1 X152.464 Y68.047 E2.80052
G1 X154.023 Y68.199 E.07907
G1 X155.756 Y68.699 E.09105
G1 X157.359 Y69.528 E.0911
G1 X158.687 Y70.576 E.0854
G1 X159.868 Y71.94 E.09108
G1 X160.576 Y73.123 E.06959
G1 X161.193 Y74.698 E.08539
G1 X161.521 Y76.473 E.09112
G1 X161.55 Y132.989 E2.85286
G1 X161.401 Y134.423 E.07278
G1 X160.941 Y136.051 E.0854
G1 X160.352 Y137.297 E.06957
G1 X159.385 Y138.685 E.08539
G1 X158.769 Y139.346 E.04561
G1 X158.003 Y140.013 E.05127
G1 X157.263 Y140.532 E.04563
G1 X156.091 Y141.159 E.0671
G1 X155.141 Y141.521 E.05132
G1 X154.268 Y141.752 E.04558
G1 X152.464 Y141.953 E.09163
G1 X97.411 Y141.95 E2.77901
G1 X95.977 Y141.801 E.07278
G1 X94.349 Y141.341 E.0854
G1 X93.103 Y140.752 E.06957
G1 X91.715 Y139.785 E.08539
G1 X91.054 Y139.169 E.04561
G1 X90.387 Y138.403 E.05127
G1 X89.868 Y137.663 E.04563
G1 X89.241 Y136.491 E.0671
G1 X88.879 Y135.541 E.05132
G1 X88.648 Y134.668 E.04558
G1 X88.447 Y132.864 E.09163
G1 X88.45 Y77.011 E2.8194
G1 X88.599 Y75.577 E.07278
G1 X89.059 Y73.949 E.0854
G1 X89.648 Y72.703 E.06957
G1 X90.564 Y71.389 E.08086
M204 S1000
;WIPE_START
G1 F8640
G1 X90.615 Y71.315 E-.02075
G1 X91.908 Y70.056 E-.41671
G1 X93.422 Y69.074 E-.41668
G1 X94.009 Y68.84 E-.14586
;WIPE_END
G1 Z.4 F720
G1 X92.776 Y73.036 F10800
G1 Z.2 F720
G1 E1 F1500
M204 S800
G1 F1200
G1 X92.849 Y72.938 E.00617
G1 X93.832 Y72.049 E.0669
G1 X94.984 Y71.374 E.0674
G1 X96.194 Y70.964 E.06449
G1 X97.533 Y70.797 E.06811
G1 X152.46 Y70.797 E2.77265
G1 X153.686 Y70.938 E.0623
G1 X154.88 Y71.314 E.06319
G1 X155.933 Y71.884 E.06044
G1 X156.865 Y72.641 E.06061
G1 X157.672 Y73.603 E.06338
G1 X158.255 Y74.649 E.06045
G1 X158.647 Y75.845 E.06353
G1 X158.795 Y77.001 E.05883
G1 X158.803 Y132.854 E2.8194
G1 X158.68 Y133.997 E.05803
M73 P1 R42
M73 Q1 S42
G1 X158.352 Y135.118 E.05896
G1 X157.829 Y136.158 E.05876
G1 X157.159 Y137.053 E.05644
G1 X156.178 Y137.944 E.0669
G1 X155.019 Y138.624 E.06783
G1 X153.807 Y139.036 E.06462
G1 X152.467 Y139.203 E.06816
G1 X97.546 Y139.203 E2.77235
G1 X96.402 Y139.08 E.05808
M73 P1 R41
G1 X95.282 Y138.752 E.05891
G1 X94.242 Y138.229 E.05876
G1 X93.347 Y137.559 E.05644
G1 X92.456 Y136.578 E.0669
G1 X91.776 Y135.419 E.06783
G1 X91.364 Y134.207 E.06462
G1 X91.197 Y132.867 E.06816
G1 X91.197 Y77.145 E2.81278
G1 X91.32 Y76.002 E.05803
G1 X91.648 Y74.88 E.05901
G1 X92.149 Y73.878 E.05655
G1 X92.722 Y73.108 E.04845
M204 S1000
G1 X92.722 Y73.108 F10800
G1 X93.207 Y73.472
M204 S800
G1 F1200
G1 X93.316 Y73.327 E.00916
G1 X94.214 Y72.522 E.06088
G1 X95.211 Y71.938 E.05833
G1 X96.302 Y71.562 E.05825
G1 X97.553 Y71.404 E.06365
G1 X152.443 Y71.404 E2.77079
G1 X153.534 Y71.526 E.05542
G1 X154.62 Y71.864 E.05741
G1 X155.573 Y72.374 E.05456
G1 X156.459 Y73.093 E.0576
G1 X157.186 Y73.967 E.05739
G1 X157.709 Y74.916 E.0547
G1 X158.06 Y76.003 E.05766
G1 X158.19 Y77.056 E.05356
G1 X158.196 Y132.837 E2.81576
G1 X158.08 Y133.904 E.05418
G1 X157.778 Y134.918 E.05341
G1 X157.3 Y135.858 E.05323
G1 X156.693 Y136.663 E.05089
G1 X155.795 Y137.472 E.06101
G1 X154.792 Y138.061 E.05871
G1 X153.699 Y138.437 E.05835
G1 X152.447 Y138.596 E.06371
G1 X97.563 Y138.596 E2.77048
G1 X96.496 Y138.48 E.05418
G1 X95.482 Y138.178 E.05341
G1 X94.542 Y137.7 E.05323
G1 X93.737 Y137.093 E.05089
G1 X92.928 Y136.195 E.06101
G1 X92.339 Y135.192 E.05871
G1 X91.963 Y134.099 E.05835
G1 X91.804 Y132.847 E.06371
G1 X91.804 Y77.161 E2.81097
G1 X91.911 Y76.143 E.05167
G1 X92.204 Y75.126 E.05343
G1 X92.68 Y74.174 E.05373
G1 X93.153 Y73.544 E.03977
M204 S1000
G1 X93.153 Y73.544 F10800
G1 X93.636 Y73.91
M204 S800
G1 F1200
G1 X93.781 Y73.718 E.01215
G1 X94.593 Y72.997 E.05482
G1 X95.488 Y72.479 E.0522
G1 X96.466 Y72.148 E.05212
G1 X97.571 Y72.011 E.05621
G1 X152.426 Y72.011 E2.76902
G1 X153.436 Y72.126 E.05131
G1 X154.409 Y72.433 E.0515
G1 X155.258 Y72.893 E.04874
G1 X156.05 Y73.543 E.05172
G1 X156.698 Y74.33 E.05146
G1 X157.161 Y75.179 E.04882
G1 X157.473 Y76.158 E.05187
G1 X157.585 Y77.109 E.04834
G1 X157.589 Y132.822 E2.81233
G1 X157.489 Y133.76 E.04762
M73 P2 R41
M73 Q2 S42
G1 X157.223 Y134.671 E.04791
G1 X156.799 Y135.515 E.04768
G1 X156.226 Y136.273 E.04797
G1 X155.415 Y136.997 E.05488
G1 X154.515 Y137.52 E.05254
G1 X153.534 Y137.852 E.05228
G1 X152.429 Y137.989 E.05621
G1 X97.578 Y137.989 E2.76882
G1 X96.64 Y137.889 E.04762
G1 X95.729 Y137.623 E.04791
G1 X94.885 Y137.199 E.04768
G1 X94.127 Y136.627 E.04793
G1 X93.403 Y135.815 E.05492
G1 X92.88 Y134.915 E.05254
G1 X92.548 Y133.934 E.05228
G1 X92.411 Y132.829 E.05621
G1 X92.411 Y77.177 E2.80925
G1 X92.511 Y76.235 E.04782
G1 X92.778 Y75.325 E.04787
G1 X93.209 Y74.474 E.04815
G1 X93.582 Y73.981 E.03121
M204 S1000
G1 X93.582 Y73.981 F10800
G1 X94.062 Y74.349
M204 S800
G1 F1200
G1 X94.244 Y74.112 E.01508
G1 X94.97 Y73.474 E.04879
G1 X95.761 Y73.022 E.04599
G1 X96.628 Y72.734 E.04612
G1 X97.588 Y72.618 E.04881
G1 X152.41 Y72.618 E2.76735
G1 X153.285 Y72.715 E.04444
G1 X154.149 Y72.983 E.04566
G1 X154.899 Y73.384 E.04293
G1 X155.604 Y73.955 E.0458
G1 X156.18 Y74.647 E.04545
G1 X156.614 Y75.443 E.04577
G1 X156.884 Y76.31 E.04584
G1 X156.98 Y77.159 E.04313
G1 X156.982 Y132.805 E2.80895
G1 X156.889 Y133.667 E.04377
G1 X156.65 Y134.47 E.04229
G1 X156.271 Y135.214 E.04215
G1 X155.763 Y135.88 E.04228
G1 X155.037 Y136.521 E.04889
G1 X154.241 Y136.977 E.04631
G1 X153.373 Y137.266 E.04618
M73 Q2 S41
G1 X152.412 Y137.382 E.04886
G1 X97.595 Y137.382 E2.7671
G1 X96.733 Y137.289 E.04377
G1 X95.93 Y137.05 E.04229
G1 X95.186 Y136.671 E.04215
G1 X94.52 Y136.163 E.04228
G1 X93.879 Y135.437 E.04889
G1 X93.423 Y134.641 E.04631
G1 X93.134 Y133.773 E.04618
G1 X93.018 Y132.812 E.04886
G1 X93.018 Y77.194 E2.80753
G1 X93.112 Y76.329 E.04392
G1 X93.352 Y75.527 E.04226
G1 X93.736 Y74.776 E.04258
G1 X94.007 Y74.421 E.02254
M204 S1000
G1 X94.007 Y74.421 F10800
G1 X94.485 Y74.791
M204 S800
G1 F1200
G1 X94.704 Y74.509 E.01802
G1 X95.343 Y73.954 E.04272
G1 X96.031 Y73.566 E.03987
G1 X96.785 Y73.32 E.04004
G1 X97.605 Y73.225 E.04167
G1 X152.394 Y73.225 E2.76569
G1 X153.137 Y73.304 E.03772
G1 X153.89 Y73.533 E.03973
G1 X154.586 Y73.905 E.03984
G1 X155.195 Y74.404 E.03974
G1 X155.691 Y75.008 E.03945
G1 X156.064 Y75.702 E.03977
G1 X156.295 Y76.458 E.0399
G1 X156.375 Y77.207 E.03802
G1 X156.375 Y132.79 E2.80577
G1 X156.299 Y133.521 E.0371
M73 P3 R41
M73 Q3 S41
G1 X156.076 Y134.268 E.03935
G1 X155.745 Y134.91 E.03646
G1 X155.302 Y135.485 E.03664
G1 X154.663 Y136.042 E.04279
G1 X153.97 Y136.433 E.04017
G1 X153.215 Y136.68 E.0401
G1 X152.395 Y136.775 E.04167
G1 X97.61 Y136.775 E2.76549
G1 X96.879 Y136.699 E.0371
G1 X96.132 Y136.476 E.03935
G1 X95.49 Y136.145 E.03646
G1 X94.915 Y135.702 E.03664
G1 X94.358 Y135.063 E.04279
G1 X93.967 Y134.37 E.04017
G1 X93.72 Y133.615 E.0401
G1 X93.625 Y132.795 E.04167
G1 X93.625 Y77.209 E2.80592
G1 X93.702 Y76.472 E.03741
G1 X93.905 Y75.777 E.03655
G1 X94.263 Y75.078 E.03964
G1 X94.43 Y74.862 E.01378
M204 S1000
G1 X94.43 Y74.862 F10800
G1 X94.905 Y75.235
M204 S800
G1 F1200
G1 X95.163 Y74.907 E.02107
G1 X95.671 Y74.465 E.03399
G1 X96.254 Y74.132 E.03389
G1 X96.889 Y73.919 E.03381
G1 X97.624 Y73.832 E.03736
G1 X152.377 Y73.832 E2.76387
G1 X153.041 Y73.904 E.03371
G1 X153.679 Y74.103 E.03374
G1 X154.268 Y74.423 E.03384
G1 X154.784 Y74.852 E.03387
G1 X155.173 Y75.325 E.03091
G1 X155.494 Y75.914 E.03386
G1 X155.695 Y76.554 E.03386
G1 X155.768 Y77.224 E.03402
G1 X155.768 Y132.776 E2.8042
G1 X155.708 Y133.38 E.03064
M73 P3 R40
G1 X155.521 Y134.021 E.03371
G1 X155.246 Y134.562 E.03063
G1 X154.839 Y135.09 E.03365
G1 X154.334 Y135.531 E.03384
G1 X153.747 Y135.868 E.03417
G1 X153.111 Y136.081 E.03386
G1 X152.376 Y136.168 E.03736
G1 X97.624 Y136.168 E2.76382
G1 X97.02 Y136.108 E.03064
G1 X96.379 Y135.921 E.03371
G1 X95.838 Y135.646 E.03063
G1 X95.31 Y135.239 E.03365
G1 X94.869 Y134.734 E.03384
G1 X94.532 Y134.147 E.03417
G1 X94.319 Y133.511 E.03386
G1 X94.232 Y132.776 E.03736
G1 X94.232 Y77.226 E2.8041
G1 X94.303 Y76.566 E.03351
G1 X94.478 Y75.98 E.03087
G1 X94.787 Y75.385 E.03384
G1 X94.849 Y75.306 E.00507
M204 S1000
G1 X94.849 Y75.306 F10800
G1 X95.392 Y75.658
M204 S800
G1 F1200
G1 X95.618 Y75.31 E.02095
G1 X96.042 Y74.947 E.02818
G1 X96.523 Y74.677 E.02784
G1 X97.046 Y74.507 E.02776
G1 X97.64 Y74.439 E.03018
G1 X152.363 Y74.439 E2.76236
G1 X152.895 Y74.494 E.027
G1 X153.422 Y74.654 E.0278
G1 X153.908 Y74.913 E.0278
G1 X154.334 Y75.262 E.0278
G1 X154.684 Y75.687 E.02779
G1 X154.944 Y76.172 E.02778
G1 X155.105 Y76.701 E.02791
G1 X155.161 Y77.239 E.0273
G1 X155.161 Y132.76 E2.80264
G1 X155.107 Y133.289 E.02684
M73 P4 R40
G1 X154.949 Y133.817 E.02782
G1 X154.381 Y134.691 E.05262
G1 X153.963 Y135.05 E.02781
G1 X153.478 Y135.323 E.02809
G1 X152.954 Y135.493 E.02781
G1 X152.36 Y135.561 E.03018
G1 X97.64 Y135.561 E2.7622
G1 X97.111 Y135.507 E.02684
M73 Q4 S41
G1 X96.583 Y135.349 E.02782
G1 X95.709 Y134.781 E.05262
G1 X95.35 Y134.363 E.02781
G1 X95.077 Y133.878 E.02809
G1 X94.907 Y133.354 E.02781
G1 X94.839 Y132.76 E.03018
G1 X94.839 Y77.24 E2.80259
G1 X94.893 Y76.711 E.02684
G1 X95.051 Y76.184 E.02777
G1 X95.343 Y75.734 E.02708
M204 S1000
G1 X95.343 Y75.734 F10800
G1 X95.847 Y76.061
M204 S800
G1 F1200
G1 X96.073 Y75.714 E.0209
G1 X96.786 Y75.225 E.04364
G1 X97.655 Y75.046 E.04479
G1 X152.349 Y75.047 E2.76089
G1 X153.171 Y75.207 E.04227
G1 X153.89 Y75.677 E.04336
G1 X154.375 Y76.386 E.04336
G1 X154.554 Y77.255 E.04479
G1 X154.554 Y132.747 E2.80117
G1 X154.395 Y133.566 E.04211
G1 X153.927 Y134.286 E.04335
G1 X153.215 Y134.775 E.0436
G1 X152.345 Y134.954 E.04484
G1 X97.653 Y134.954 E2.76079
G1 X96.834 Y134.795 E.04211
G1 X96.114 Y134.327 E.04335
G1 X95.625 Y133.615 E.0436
G1 X95.446 Y132.745 E.04484
G1 X95.446 Y77.253 E2.80117
G1 X95.605 Y76.434 E.04211
G1 X95.798 Y76.136 E.01792
M204 S1000
;WIPE_START
G1 F8640
G1 X95.847 Y76.061 E-.02069
G1 X96.073 Y75.714 E-.09562
G1 X96.786 Y75.225 E-.19963
G1 X97.655 Y75.046 E-.20487
G1 X99.73 Y75.046 E-.47919
;WIPE_END
G1 Z.4 F720
; printing object Case_bottom id:0 copy 0
G1 X133.613 Y129.157 F10800
G1 Z.2 F720
G1 E1 F1500
M204 S800
;TYPE:External perimeter
;WIDTH:0.55292
G1 F1200
G1 X133.549 Y129.157 E.00271
G1 X133.517 Y129.212 E.0027
G1 X133.549 Y129.267 E.0027
G1 X133.613 Y129.267 E.00271
G1 X133.645 Y129.212 E.0027
M204 S1000
;WIPE_START
G1 F8640
G1 X133.613 Y129.267 E-.01469
G1 X133.549 Y129.267 E-.01478
G1 X133.517 Y129.212 E-.01469
G1 X133.549 Y129.157 E-.01469
G1 X133.613 Y129.157 E-.01478
;WIPE_END
G1 E-.92637 F2100
G1 Z.4 F720
G1 X134.814 Y129.222 F10800
G1 Z.2 F720
G1 E1 F1500
M204 S800
G1 F1200
G1 X134.984 Y129.222 E.00721
M204 S1000
;WIPE_START
G1 F8640
G1 X134.814 Y129.222 E-.03925
;WIPE_END
G1 E-.96075 F2100
G1 Z.4 F720
G1 X134.424 Y124.847 F10800
G1 Z.2 F720
G1 E1 F1500
M204 S800
G1 F1200
G1 X134.36 Y124.847 E.00271
G1 X134.328 Y124.902 E.0027
G1 X134.36 Y124.957 E.0027
G1 X134.424 Y124.957 E.00271
G1 X134.456 Y124.902 E.0027
M204 S1000
;WIPE_START
G1 F8640
G1 X134.424 Y124.957 E-.01469
G1 X134.36 Y124.957 E-.01478
G1 X134.328 Y124.902 E-.01469
G1 X134.36 Y124.847 E-.01469
G1 X134.424 Y124.847 E-.01478
;WIPE_END
G1 E-.92637 F2100
G1 Z.4 F720
G1 X127.667 Y122.057 F10800
G1 Z.2 F720
G1 E1 F1500
M204 S800
G1 F1200
G1 X127.604 Y122.057 E.00267
G1 X127.572 Y122.112 E.0027
G1 X127.604 Y122.167 E.0027
G1 X127.667 Y122.167 E.00267
G1 X127.699 Y122.112 E.0027
M204 S1000
;WIPE_START
G1 F8640
G1 X127.667 Y122.167 E-.01469
G1 X127.604 Y122.167 E-.01455
G1 X127.572 Y122.112 E-.01469
G1 X127.604 Y122.057 E-.01469
G1 X127.667 Y122.057 E-.01455
;WIPE_END
G1 E-.92683 F2100
G1 Z.4 F720
G1 X106.45 Y86.394 F10800
G1 Z.2 F720
G1 E1 F1500
M204 S800
G1 F1200
G1 X106.387 Y86.394 E.00267
G1 X106.355 Y86.449 E.0027
G1 X106.387 Y86.505 E.00274
G1 X106.45 Y86.505 E.00267
G1 X106.482 Y86.449 E.00274
M204 S1000
;WIPE_START
G1 F8640
G1 X106.45 Y86.505 E-.01489
G1 X106.387 Y86.505 E-.01455
G1 X106.355 Y86.449 E-.01489
G1 X106.387 Y86.394 E-.01469
G1 X106.45 Y86.394 E-.01455
;WIPE_END
G1 E-.92643 F2100
G1 Z.4 F720
G1 X119.007 Y127.462 F10800
G1 Z.2 F720
G1 E1 F1500
M204 S800
;WIDTH:0.637124
G1 F1200
G1 X119.196 Y127.433 E.00945
;WIDTH:0.609202
G1 X119.431 Y127.397 E.01119
;WIDTH:0.61564
G1 X118.924 Y127.414 E.02416
;WIDTH:0.649999
G1 X117.888 Y127.432 E.0523
G1 X117.687 Y127.355 E.01087
;WIDTH:0.658479
G1 X117.582 Y127.164 E.01116
;WIDTH:0.677212
G1 X117.525 Y126.713 E.02398
;WIDTH:0.685941
G1 X117.566 Y125.948 E.04096
;WIDTH:0.711582
G1 X117.582 Y125.861 E.00492
;WIDTH:0.737223
G1 X117.598 Y125.775 E.00505
G1 X117.887 Y125.549 E.02118
G1 X117.694 Y125.49 E.01165
G1 X117.599 Y125.393 E.00784
G1 X117.457 Y124.872 E.03118
;WIDTH:0.774534
G1 X117.429 Y124.8 E.0047
;WIDTH:0.820403
G1 X117.401 Y124.727 E.00505
;WIDTH:0.866272
G1 X117.373 Y124.655 E.00529
G1 X117.395 Y124.541 E.00795
;WIDTH:0.824545
G1 X117.416 Y124.428 E.00747
;WIDTH:0.782818
G1 X117.438 Y124.314 E.00714
;WIDTH:0.741091
G1 X117.46 Y124.2 E.00674
;WIDTH:0.699364
G1 X117.481 Y124.086 E.00633
;WIDTH:0.657636
G1 X117.514 Y123.503 E.02985
;WIDTH:0.649999
G1 X117.713 Y123.228 E.01714
G1 X118.75 Y123.091 E.0528
G1 X121.655 Y123.082 E.14664
G1 X121.81 Y123.125 E.00812
G1 X121.933 Y123.264 E.00937
G1 X121.952 Y123.791 E.02662
G1 X121.889 Y124.449 E.03337
G1 X121.72 Y124.957 E.02703
G1 X121.428 Y125.207 E.0194
G1 X121.613 Y125.269 E.00985
G1 X121.73 Y125.475 E.01196
G1 X121.732 Y125.887 E.0208
G1 X121.827 Y126.307 E.02174
G1 X121.828 Y126.795 E.02463
G1 X121.669 Y127.306 E.02701
G1 X121.596 Y127.378 E.00518
G1 X121.423 Y127.432 E.00915
G1 X120.703 Y127.431 E.03634
;WIDTH:0.648038
G1 X120.268 Y127.441 E.02189
G1 X120.655 Y127.594 E.02094
;WIDTH:0.649999
G1 X120.979 Y127.806 E.01955
G1 X121.539 Y128.305 E.03786
G1 X121.764 Y128.629 E.01991
G1 X121.916 Y129.013 E.02085
G1 X121.968 Y129.613 E.0304
G1 X121.892 Y130.109 E.02533
G1 X121.724 Y130.536 E.02316
G1 X121.483 Y130.907 E.02233
G1 X121.151 Y131.248 E.02402
G1 X120.757 Y131.518 E.02411
G1 X120.336 Y131.691 E.02298
G1 X119.871 Y131.778 E.02388
G1 X119.391 Y131.773 E.02423
G1 X118.933 Y131.679 E.0236
G1 X118.498 Y131.484 E.02406
G1 X118.034 Y131.122 E.02971
G1 X117.729 Y130.719 E.02551
;WIDTH:0.663738
G1 X117.571 Y130.29 E.0236
;WIDTH:0.671395
G1 X117.517 Y130.02 E.01439
G1 X117.52 Y129.057 E.05032
;WIDTH:0.664191
G1 X117.538 Y128.883 E.00904
;WIDTH:0.661059
G1 X117.699 Y128.461 E.02322
;WIDTH:0.649999
G1 X117.849 Y128.263 E.01254
